!!!!SEGMENT: pl-kk--kk-i-1--012-003_borek-krzysztof--missa-patrem.krn
!!!cenid: 15xx:694
!!!COM: Borek, Krzysztof
!!!COM-rismID: pe30020454
!!!CDT: 1520-1573
!!!CNT: Polish
!!!OPR: [Missa]
!!!OTL: Patrem
!!!OMV: 003
!!!PDT:
!!!AGN: Sacred; Mass
!!!SMS-siglum: PL-Kk
!!!SMS-shelfmark: Kk.I.1
!!!SMS-shelfwork: 012-003 M
!!!SMS-variant: Cantus 0071-0077
!!!SMS-altvar: Cantus 0067-0071
!!!NIFC-rismSourceID: 300257954
!!!NIFC-rismChildID: 300257966
!!!NIFC-islandoraID: pl-kk:1
!!!URL-pdf-islandora: https://repozytorium.nifc.pl/islandora/object/pl-kk%3A1/datastream/PDF/view
!!!URL-scan: https://polish.musicsources.pl/pl/lokalizacje/galeria/rekopisy/5736 @EN{Scan on Polish Music Sources Website} @PL{Skany w portalu Dziedzictwo Muzyki Polskiej w otwartym dostępie}
!!!IIIF: https://repozytorium.nifc.pl/islandora/object/pl-kk%3A1/datastream/IIIF/view
!!!ONB-nifc: UWAGA: Cantus (s. 71r-77v oraz 69r-75r, skan 0067-0071 oraz 0071-0077, Altus (s. 66r-72v, skan 0258-0265), Tenor (s. 64r-70v, skan 0453-0460), Bassus (s. 64r-70r, skan 0625-0631). Części Mszy: 1. Kyrie, 2. Et in terra, 3. Patrem, 4. Sanctus
!!!AIN: 1 alto 1 bass 2 soprn 1 tenor
!!!key: d:dor
**kern	**text	**mod-text	**kern	**text	**mod-text	**kern	**text	**mod-text	**kern	**text	**mod-text	**kern
*part5	*part5	*part5	*part4	*part4	*part4	*part3	*part3	*part3	*part2	*part2	*part2	*part1
*staff5	*staff5	*staff5	*staff4	*staff4	*staff4	*staff3	*staff3	*staff3	*staff2	*staff2	*staff2	*staff1
*I"BASSVS	*	*	*I"TENOR	*	*	*I"ALTVS	*	*	*I"CANTVS	*	*	*I"[QVINTVS]
*mI"Basso	*	*	*mI"Tenore II	*	*	*mI"Tenore I	*	*	*mI"Alto	*	*	*
*I'B	*	*	*I'T	*	*	*I'A	*	*	*I'S	*	*	*I'[5]
*	*	*	*mI'T 2	*	*	*mI'T 1	*	*	*mI'A	*	*	*
*Ibass	*	*	*Itenor	*	*	*Ialto	*	*	*Isoprn	*	*	*Isoprn
*ICvox	*	*	*ICvox	*	*	*ICvox	*	*	*ICvox	*	*	*ICvox
!	!	!	!	!	!	!	!	!	!	!	!	!LO:MO:mod=*tacet
*	*	*	*	*	*	*	*	*	*	*	*	*null
*clefF4	*	*	*clefC4	*	*	*clefC3	*	*	*clefC3	*	*	*clefC3
*	*	*	*mclefGv2	*	*	*mclefGv2	*	*	*mclefG2	*	*	*
*k[]	*	*	*k[]	*	*	*k[]	*	*	*k[]	*	*	*k[]
*d:dor	*	*	*d:dor	*	*	*d:dor	*	*	*d:dor	*	*	*d:dor
*M2/1	*	*	*M2/1	*	*	*M2/1	*	*	*M2/1	*	*	*M2/1
*met(C|)	*	*	*met(C|)	*	*	*met(C|)	*	*	*met(C|)	*	*	*
*mmet(c|)	*	*	*mmet(c|)	*	*	*mmet(c|)	*	*	*mmet(c|)	*	*	*mmet(c|)
=1-	=1-	=1-	=1-	=1-	=1-	=1-	=1-	=1-	=1-	=1-	=1-	=1-
*xywh-#628:1103,640,4182,748	*	*	*xywh-#456:1496,513,4062,872	*	*	*xywh-#261:1373,614,4210,771	*	*	*xywh-#69:1676,1091,4011,725	*	*	*
00r	.	.	00r	.	.	0r	.	.	1A/	AT-	Pa-	0ryy
.	.	.	.	.	.	.	.	.	2d\	-trem	-trem	.
.	.	.	.	.	.	.	.	.	1d\	Om-	om-	.
=2-	=2-	=2-	=2-	=2-	=2-	=2-	=2-	=2-	=2-	=2-	=2-	=2-
.	.	.	.	.	.	1A/	Pa-	Pa-	.	.	.	0ryy
.	.	.	.	.	.	.	.	.	2c\	.	.	.
.	.	.	.	.	.	2d\	-trem	-trem	2d\	-ni-	-ni-	.
.	.	.	.	.	.	1d\	o(m-	om-	2B/	-po-	-po-	.
=3-	=3-	=3-	=3-	=3-	=3-	=3-	=3-	=3-	=3-	=3-	=3-	=3-
1AA/	A-	Pa-	1r	.	.	.	.	.	2A/	-te(n)-	-ten-	0ryy
.	.	.	.	.	.	2c\	-n)i-	-ni-	2e\	-te(m)	-tem	.
*	*	*	*	*	*	*	*	*	*	*ij	*ij	*
2D/	-TREM	-trem	1D/	Pa-	Pa-	2d\	-po-	-po-	2f\	om-	om-	.
1D\	o(m)-	om-	.	.	.	2B/	-te(n)-	-ten-	1f\	-ni-	-ni-	.
=4-	=4-	=4-	=4-	=4-	=4-	=4-	=4-	=4-	=4-	=4-	=4-	=4-
.	.	.	2A/	-trem	-trem	1A/	-tem	-tem	.	.	.	0ryy
2C/	-ni-	-ni-	1A\	o(m)-	om-	.	.	.	2e\	-po-	-po-	.
2D/	-po-	-po-	.	.	.	2r	.	.	2d\	-te(n)-	-ten-	.
*	*	*	*	*	*	*	*	*	*custos:c	*	*	*
2BB/	-te(n)-	-ten-	2G/	-ni-	-ni-	2B/	om-	om-	2d\	-te(m)	-tem	.
!	!	!	!	!	!	!	!	!	!LO:LB:g=original	!	!	!
=5-	=5-	=5-	=5-	=5-	=5-	=5-	=5-	=5-	=5-	=5-	=5-	=5-
2AA/	-tem	-tem	1A\	-po-	-po-	2e\	.	-ni-	2c/	om-	om-	0ryy
*	*ij	*ij	*	*	*	*	*	*	*	*	*	*
4D\	o(m)-	om-	.	.	.	2d\	-ni-	-po-	2.A/	-ni-	-ni-	.
4E\	.	.	.	.	.	.	.	.	.	.	.	.
4F\	-ni-	.	1F/	-te(n)-	-ten-	2.c\	-po-	-ten-	.	.	.	.
4G\	.	-ni-	.	.	.	.	.	.	4B/	-po-	-po-	.
1A\	-po-	-po-	.	.	.	.	.	.	4c/	-te(n)-	-ten-	.
*	*	*	*	*	*	*custos:e	*	*	*	*	*	*
.	.	.	.	.	.	4d\	-ten-	.	4A/	.	.	.
!	!	!	!	!	!	!LO:LB:g=original	!	!	!	!	!	!
=6-	=6-	=6-	=6-	=6-	=6-	=6-	=6-	=6-	=6-	=6-	=6-	=6-
*	*	*	*	*	*	*xywh-#261:1311,1276,4327,854	*	*	*	*	*	*
.	.	.	1E/	-tem	-tem	1e\	-tem	.	1B	-te(m)/	-tem	0ryy
*	*	*	*	*	*	*	*	*	*	*Xij	*Xij	*
2G\	-te(n)-	-ten-	.	.	.	.	.	.	.	.	.	.
2A\	-tem	-tem	2r	.	.	2c/	.	-tem	2r	.	.	.
*	*Xij	*Xij	*	*	*	*	*	*	*	*	*	*
*custos:C	*	*	*	*	*	*	*	*	*	*	*	*
2AA/	fa-	fa-	2A/	fac-	fa-	2c/	fac-	fa-	2e\	Fac-	fa-	.
!LO:LB:g=original	!	!	!	!	!	!	!	!	!	!	!	!
=7-	=7-	=7-	=7-	=7-	=7-	=7-	=7-	=7-	=7-	=7-	=7-	=7-
*xywh-#628:1020,1375,4383,813	*	*	*	*	*	*	*	*	*	*	*	*
2C/	-cto-	-cto-	2G/	-to-	-cto-	2c/	-to-	-cto-	2e\	-to-	-cto-	0ryy
2C/	-rem	-rem	2G/	-re(m)	-rem	2c/	-rem	-rem	2e\	-re(m)	-rem	.
*	*	*	*	*	*	*	*	*	*xywh-#69:1621,1647,3971,725	*	*	*
2D/	cae-	cae-	2F/	cae-	cae-	2A/	.	cae-	1d\	cae-	cae-	.
*	*	*	*custos:F	*	*	*	*	*	*	*	*	*
2.F\	-li	-li	2D/	-li	-li	2A/	cae-	-li	.	.	.	.
!	!	!	!LO:LB:g=original	!	!	!	!	!	!	!	!	!
=8-	=8-	=8-	=8-	=8-	=8-	=8-	=8-	=8-	=8-	=8-	=8-	=8-
*	*	*	*xywh-#456:1459,1334,4143,835	*	*	*	*	*	*	*	*	*
.	.	.	1F/	et	et	4A/	-li	et	2c\	-li	-li	0ryy
4E/	(et)	.	.	.	.	4G/	.	.	.	.	.	.
2D/	ter-	.	.	.	.	4A/	et	.	2d\	et	et	.
.	.	.	.	.	.	4B/	.	.	.	.	.	.
2C/	.	.	1G/	ter-	ter-	2c\	ter-	.	2e\	ter-	ter-	.
2BB/	-rae	et	.	.	.	2d\	-rae	ter-	2d\	-rae.	.	.
=9-	=9-	=9-	=9-	=9-	=9-	=9-	=9-	=9-	=9-	=9-	=9-	=9-
0AA/	.	ter-	2.A/	-re	.	0A/	.	-rae	2c/	.	.	0ryy
.	.	.	.	.	.	.	.	.	1d\	.	.	.
!	!	!	!LO:SIC:s=8GL	!	!	!	!	!	!	!	!	!
.	.	.	8G/	.	.	.	.	.	.	.	.	.
!	!	!	!LO:SIC:s=8FJ	!	!	!	!	!	!	!	!	!
.	.	.	8F/	.	.	.	.	.	.	.	.	.
.	.	.	4E/	.	.	.	.	.	.	.	.	.
.	.	.	4D/	.	.	.	.	.	.	.	.	.
.	.	.	2E/	.	.	.	.	.	2c/	.	.	.
=10-	=10-	=10-	=10-	=10-	=10-	=10-	=10-	=10-	=10-	=10-	=10-	=10-
2D\	.	-rae	2D/	.	-rae	2r	.	.	2d\	.	-rae	0ryy
2.D\	Vi-	vi-	2.A\	vi-	vi-	2.d\	Vi-	vi-	2.f\	Vi-	vi-	.
4D\	-ſi-	-ſi-	4A\	-ſi-	-ſi-	4d\	-ſi-	-ſi-	4f\	-ſi-	-ſi-	.
4D\	-bi-	-bi-	4A\	-bi-	-bi-	4d\	-bi-	-bi-	4f\	-bi-	-bi-	.
*	*	*	*	*	*	*	*	*	*custos:f	*	*	*
4D\	-li-	-li-	4A\	-li-	-li-	4d\	-li-	-li-	4f\	-li-	-li-	.
!	!	!	!	!	!	!	!	!	!LO:LB:g=original	!	!	!
=11-	=11-	=11-	=11-	=11-	=11-	=11-	=11-	=11-	=11-	=11-	=11-	=11-
1D\	-um	-um	2A\	-u(m)	-um	2d\	-u(m)	-um	2f\	-um	-um	0ryy
.	.	.	1F/	o(m)-	om-	2.A/	om-	om-	1d\	om-	om-	.
2D/	om-	om-	.	.	.	.	.	.	.	.	.	.
.	.	.	.	.	.	4B/	.	.	.	.	.	.
*	*	*	*	*	*	*custos:F	*	*	*	*	*	*
2C/	-ni-	-ni-	2G/	-ni-	-ni-	2c/	-ni-	-ni-	2e\	-ni-	-ni-	.
!	!	!	!	!	!	!LO:LB:g=original	!	!	!	!	!	!
=12-	=12-	=12-	=12-	=12-	=12-	=12-	=12-	=12-	=12-	=12-	=12-	=12-
*	*	*	*	*	*	*xywh-#261:1325,2061,4286,785	*	*	*	*	*	*
1F\	-u(m)	-um.	2A/	-um	-um	2F/	-um	-um	1c\	-u(m)	-um.	0ryy
.	.	.	1A\	et	et	2.f\	(et)	et	.	.	.	.
1r	.	.	.	.	.	.	.	.	1r	.	.	.
.	.	.	.	.	.	4e\	in-	.	.	.	.	.
.	.	.	2B\	in-	in-	2d\	in	in-	.	.	.	.
=13-	=13-	=13-	=13-	=13-	=13-	=13-	=13-	=13-	=13-	=13-	=13-	=13-
1r	.	.	2A/	-vi-	-vi-	2c\	-ſi-	-vi-	1r	.	.	0ryy
*	*	*	*custos:G	*	*	*	*	*	*	*	*	*
.	.	.	2F/	-ſi-	-ſi-	2d\	-bi-	-si-	.	.	.	.
*	*	*	*xywh-#456:1401,2046,4172,887	*	*	*	*	*	*	*	*	*
!	!	!	!LO:LB:g=original	!	!	!	!	!	!	!	!	!
2r	.	.	2G/	-bi-	-bi-	2d\	-li-	-bi-	2r	.	.	.
1A\	(et)	Et	2A/	-li-	-li-	2c\	-u(m)	-li-	2e\	Et	Et	.
=14-	=14-	=14-	=14-	=14-	=14-	=14-	=14-	=14-	=14-	=14-	=14-	=14-
.	.	.	1D/	-um	-um	2d\	(et	-um.	1f\	in	in	0ryy
*custos:G	*	*	*	*	*	*	*	*	*	*	*	*
2F\	in	in	.	.	.	4d\	in	Et	.	.	.	.
.	.	.	.	.	.	4d\	u-	in	.	.	.	.
*xywh-#628:994,2111,4337,793	*	*	*	*	*	*	*	*	*	*	*	*
!LO:LB:g=original	!	!	!	!	!	!	!	!	!	!	!	!
2G\	u-	u-	1r	.	.	2B/	-nu(m)	u-	2e\	u-	u-	.
2A\	-num	-num	.	.	.	2c/	.	-num	2e\	-nu(m)	-num	.
=15-	=15-	=15-	=15-	=15-	=15-	=15-	=15-	=15-	=15-	=15-	=15-	=15-
2.A\	do-	Do-	0r	.	.	2.c/	Do-	Do-	2.f\	Do-	Do-	0ryy
4G\	-mi-	-mi-	.	.	.	4B/	-mi-	-mi-	4e\	-mi-	-mi-	.
*	*	*	*	*	*	*	*	*	*xywh-#69:1635,2237,4045,725	*	*	*
2F\	-nu	-num	.	.	.	2A/	-num	-num	2d\	-nu(m)	-num	.
2E\	n(os-	nos-	.	.	.	2G/	n(os-	nos-	2c/	noſ-	noſ-	.
=16-	=16-	=16-	=16-	=16-	=16-	=16-	=16-	=16-	=16-	=16-	=16-	=16-
1D\	-t)r(u)m	-trum	1r	.	.	1A/	-t)r(u)m	-trum	1d\	-tru(m)	-trum	0ryy
1D\	Je-	Je-	1F/	Je-	Je-	1A/	Je-	Je-	1d\	Je-	Je-	.
=17-	=17-	=17-	=17-	=17-	=17-	=17-	=17-	=17-	=17-	=17-	=17-	=17-
*lig	*	*	*	*	*	*lig	*	*	*	*	*	*
1C/	-ſum	-ſum	0G/	-ſum	-ſum	1c\	-ſu(m)	-ſum	0e\	-ſu(m)	-ſum	0ryy
*	*	*	*	*	*	*custos:d	*	*	*	*	*	*
1E\	.	.	.	.	.	1B/	.	.	.	.	.	.
*Xlig	*	*	*	*	*	*Xlig	*	*	*	*	*	*
!	!	!	!	!	!	!LO:LB:g=original	!	!	!	!	!	!
=18-	=18-	=18-	=18-	=18-	=18-	=18-	=18-	=18-	=18-	=18-	=18-	=18-
*	*	*	*	*	*	*xywh-#261:1318,2785,4327,888	*	*	*	*	*	*
0D\	chr(i-	Chri-	0A\	chr(i-	Chri-	0d\	Chr(i-	Chri-	0f\	Chr(i-	Chri-	0ryy
=19-	=19-	=19-	=19-	=19-	=19-	=19-	=19-	=19-	=19-	=19-	=19-	=19-
2D\	-stu)m	-stum	2F/	-stu)m	-stum	2A/	-stu)m	-stum	2d\	-stum)	-stum	0ryy
2.D\	fi-	Fi-	2.F/	fi-	Fi-	2.A/	fii-	Fi-	2.d\	fi-	Fi-	.
4D\	-li-	-li-	4F/	-li-	-li-	4A/	-li-	-li-	4d\	-li-	-li-	.
*	*	*	*	*	*	*	*	*	*custos:c	*	*	*
2D\	-um	-um	2F/	-u(m)	-um	2A/	-um	-um	2d\	-u(m)	-um	.
!	!	!	!	!	!	!	!	!	!LO:LB:g=original	!	!	!
=20-	=20-	=20-	=20-	=20-	=20-	=20-	=20-	=20-	=20-	=20-	=20-	=20-
1AA/	De-	De-	1E/	De-	De-	1A/	De-	De-	1c\	De-	De-	0ryy
2D\	-i	-i	2D/	-i	-i	1A/	-i	-i	1f\	-i	-i	.
1F\	u-	u-	1A\	u-	u-	.	.	.	.	.	.	.
=21-	=21-	=21-	=21-	=21-	=21-	=21-	=21-	=21-	=21-	=21-	=21-	=21-
.	.	.	.	.	.	2c\	u-	u-	2.f\	u-	u-	0ryy
2D\	-ni-	-ni-	2F/	-ni-	-ni-	2d\	-ni-	-ni-	.	.	.	.
.	.	.	.	.	.	.	.	.	4f\	-ni-	-ni-	.
2E\	-ge-	-ge-	2G/	-ge-	-ge-	2B/	-ge-	-ge-	2e\	-ge-	-ge-	.
*custos:D	*	*	*custos:D	*	*	*	*	*	*	*	*	*
2AA/	-ni-	-ni-	2A/	-ni-	-ni-	2c/	-ni-	-ni-	2e\	-ni-	-ni-	.
!LO:LB:g=original	!	!	!LO:LB:g=original	!	!	!	!	!	!	!	!	!
=22-	=22-	=22-	=22-	=22-	=22-	=22-	=22-	=22-	=22-	=22-	=22-	=22-
*xywh-#628:1000,2899,4376,722	*	*	*xywh-#456:1342,2757,4304,821	*	*	*	*	*	*	*	*	*
1D\	-tum	-tum.	2D/	-tum	-tum.	0A/	-tum	-tum.	1d\	-tum	-tum.	0ryy
.	.	.	2A\	e(t)	Et	.	.	.	.	.	.	.
1r	.	.	1c\	ex	ex	.	.	.	2r	.	.	.
.	.	.	.	.	.	.	.	.	2e\	(Et)	Et	.
=23-	=23-	=23-	=23-	=23-	=23-	=23-	=23-	=23-	=23-	=23-	=23-	=23-
0GG/	(et)	Et	2B\	p(at)-	Pa-	2r	.	.	2d\	ex	ex	0ryy
.	.	.	2G/	-re	-tre	2B/	(et)	Et	1g\	pat-	Pa-	.
.	.	.	1B\	na-	na-	1d\	ex	ex	.	.	.	.
.	.	.	.	.	.	.	.	.	2d\	-re	-tre	.
=24-	=24-	=24-	=24-	=24-	=24-	=24-	=24-	=24-	=24-	=24-	=24-	=24-
2D\	ex	ex	1A\	-tu(m)	-tum	2d\	.	Pa-	1f\	na-	na-	0ryy
1D\	pa-	Pa-	.	.	.	2.A/	pa-	.	.	.	.	.
.	.	.	2r	.	.	.	.	.	1e\	-tu(m)	-tum	.
.	.	.	.	.	.	4B/	-tre	.	.	.	.	.
*	*	*	*	*	*	*custos:B	*	*	*	*	*	*
2C/	-tre	-tre	2A/	an-	an-	2c/	.	-tre	.	.	.	.
!	!	!	!	!	!	!LO:PB:g=original	!	!	!	!	!	!
=25-	=25-	=25-	=25-	=25-	=25-	=25-	=25-	=25-	=25-	=25-	=25-	=25-
*	*	*	*	*	*	*xywh-#261:5926,646,4251,861	*	*	*	*	*	*
1D\	na-	na-	2.d\	-te	-te	2B/	na-	na-	2r	.	.	0ryy
*	*	*	*	*	*	*	*	*	*xywh-#69:1635,2786,3998,786	*	*	*
.	.	.	.	.	.	2A/	-tu(m)	-tum	2f\	an-	an-	.
.	.	.	4d\	o(m-	om-	.	.	.	.	.	.	.
1AA/	-tu(m)	-tum	2c\	-n)i-	-ni-	2r	.	.	2e\	-te	-te	.
.	.	.	2A/	-a	-a	2c\	an-	an-	2f\	om-	om-	.
=26-	=26-	=26-	=26-	=26-	=26-	=26-	=26-	=26-	=26-	=26-	=26-	=26-
2r	.	.	2B\	ſe-	sae-	2B/	-te	-te	2d\	-ni-	-ni-	0ryy
*	*	*	*	*	*	*	*	*	*custos:f	*	*	*
2GG/	an-	an-	2B\	-cu-	-cu-	2d\	o(m-	om-	2d\	-a	-a	.
!	!	!	!	!	!	!	!	!	!LO:PB:g=original	!	!	!
2D\	-te	-te	1A\	-la	-la	2.d\	-n)i-	-ni-	2.f\	ſe-	sae-	.
2D\	om-	om-	.	.	.	.	.	.	.	.	.	.
.	.	.	.	.	.	4d\	-a	-a	4f\	-cu-	-cu-	.
=27-	=27-	=27-	=27-	=27-	=27-	=27-	=27-	=27-	=27-	=27-	=27-	=27-
4C/	-ni-	-ni-	2r	.	.	2e\	ſe-	sae-	2e\	-la	-la	0ryy
4C/	-a	-a	.	.	.	.	.	.	.	.	.	.
*	*	*	*custos:F	*	*	*	*	*	*	*	*	*
4D/	ſ(e)-	sae-	2F/	De-	De-	2A/	-cu-	-cu-	2d\	De-	De-	.
4D/	-c(u-	-cu-	.	.	.	.	.	.	.	.	.	.
*	*	*	*xywh-#456:5930,579,4377,843	*	*	*	*	*	*	*	*	*
!	!	!	!LO:PB:g=original	!	!	!	!	!	!	!	!	!
2D\	-l)a	-la	2F/	-um	-um	2A/	-la	-la	2d\	-um	-um	.
2E\	De-	De-	2G/	de	de	2c\	De-	De-	2g\	de-	de	.
=28-	=28-	=28-	=28-	=28-	=28-	=28-	=28-	=28-	=28-	=28-	=28-	=28-
2D/	-um	-um	1A\	De-	De-	2d\	-u(m)	-um	2.f\	-o	[De-	0ryy
2D/	de	de	.	.	.	1A/	de	de	.	.	.	.
.	.	.	.	.	.	.	.	.	4e\	.	.	.
*custos:AA	*	*	*	*	*	*	*	*	*	*	*	*
1BB/	De-	De-	1D/	-o	-o	.	.	.	1d\	.	.	.
.	.	.	.	.	.	2G/	De-	De-	.	.	.	.
!LO:PB:g=original	!	!	!	!	!	!	!	!	!	!	!	!
=29-	=29-	=29-	=29-	=29-	=29-	=29-	=29-	=29-	=29-	=29-	=29-	=29-
*xywh-#628:5773,726,4383,832	*	*	*	*	*	*	*	*	*	*	*	*
2AA/	-o	-o	2r	.	.	2A/	-o	-o	2c/	.	-o]	0ryy
2D\	lu-	lu-	2F/	lu-	lu-	2A/	lu-	lu-	2d\	Lu-	lu-	.
2F\	-men	-men	2F/	-me(n)	-men	2A/	-me(n)	-men	2d\	-me(n)	-men	.
*	*	*	*	*	*	*custos:F	*	*	*	*	*	*
2E\	.	de	2G/	de	de	2G/	de	de	2e\	de	de	.
!	!	!	!	!	!	!LO:LB:g=original	!	!	!	!	!	!
=30-	=30-	=30-	=30-	=30-	=30-	=30-	=30-	=30-	=30-	=30-	=30-	=30-
*	*	*	*	*	*	*xywh-#261:5919,1418,4286,833	*	*	*	*	*	*
2.D/	de	lu-	2A/	lu-	lu-	4F/	Lu-	lu-	2.f\	lu-	lu-	0ryy
.	.	.	.	.	.	4E/	.	.	.	.	.	.
.	.	.	2A/	-mi-	-mi-	1A/	-mi-	.	.	.	.	.
4C/	.	.	.	.	.	.	.	.	4e\	.	.	.
2BB/	lu-	.	1D/	-ne	-ne	.	.	.	2d\	-mi-	.	.
2BB/	-mi-	-mi-	.	.	.	2G/	-ne	-mi-	2d\	-ne	-mi-	.
=31-	=31-	=31-	=31-	=31-	=31-	=31-	=31-	=31-	=31-	=31-	=31-	=31-
2AA/	-ne	-ne	2r	.	.	2A/	.	-ne	2c/	.	-ne	0ryy
*	*	*	*	*	*	*	*	*	*custos:e	*	*	*
2D\	De-	De-	2D/	De-	De-	2A/	De-	De-	2f\	De-	De-	.
*	*	*	*	*	*	*	*	*	*xywh-#69:5923,726,4120,725	*	*	*
!	!	!	!	!	!	!	!	!	!LO:LB:g=original	!	!	!
1C/	-u(m)	-um	1G/	-u(m)	-um	1c\	-u(m)	-um	1e\	-um	-um	.
=32-	=32-	=32-	=32-	=32-	=32-	=32-	=32-	=32-	=32-	=32-	=32-	=32-
1C/	ve-	ve-	1G/	ve-	ve-	1c\	ve-	ve-	1e\	ve-	ve-	0ryy
2FF/	-r(um)	-rum	2F/	-ru(m)	-rum	2A/	-ru(m)	-rum	2c/	-ru(m)	-rum	.
2FF/	de	de	2A/	de	de	2c/	de	de	2f\	de	de	.
=33-	=33-	=33-	=33-	=33-	=33-	=33-	=33-	=33-	=33-	=33-	=33-	=33-
2C/	De-	De-	2G/	De-	De-	2c/	De-	De-	2e\	De-	De-	0ryy
*	*	*	*custos:E	*	*	*	*	*	*	*	*	*
2D/	-o	-o	2F/	-o	-o	2B/	-o	-o	1d\	-o	-o	.
*	*	*	*xywh-#456:5967,1467,4377,791	*	*	*	*	*	*	*	*	*
!	!	!	!LO:LB:g=original	!	!	!	!	!	!	!	!	!
1AA/	ve-	ve-	1E/	ue-	ve-	1A/	ve-	ve-	.	.	.	.
.	.	.	.	.	.	.	.	.	2c/	ve-	ve-	.
=34-	=34-	=34-	=34-	=34-	=34-	=34-	=34-	=34-	=34-	=34-	=34-	=34-
2D/	-ro	-ro.	2D/	-ro	-ro.	2A/	-ro	-ro.	2d\	-ro	-ro.	0ryy
2.AA/	ge-	Ge-	2.E/	ge-	Ge-	2.A/	ge-	Ge-	2.c/	ge-	Ge-	.
4AA/	-ni-	-ni-	4E/	-ni-	-ni-	4A/	-ni-	-ni-	4c/	-ni-	-ni-	.
4AA/	-tu(m)	-tum	4E/	-tu(m)	-tum	4A/	-tu(m)	-tum	4c/	-tu(m)	-tum	.
*custos:D	*	*	*	*	*	*	*	*	*	*	*	*
4AA/	n(on)	non	4E/	no(n)	non	4A/	no(n)	non	4c/	no(n)	non	.
!LO:LB:g=original	!	!	!	!	!	!	!	!	!	!	!	!
=35-	=35-	=35-	=35-	=35-	=35-	=35-	=35-	=35-	=35-	=35-	=35-	=35-
*xywh-#628:5734,1475,4467,800	*	*	*	*	*	*	*	*	*	*	*	*
1D\	fac-	fa-	1F/	f(a)c-	fa-	1A/	f(a)c-	fa-	1d\	fac-	fa-	0ryy
2AA/	-tu(m)	-ctum	2E/	-t(u)m	-ctum	2A/	-t(u)m	-ctum	2c/	-tu(m)	-ctum	.
*	*	*	*	*	*	*custos:A	*	*	*	*	*	*
!	!	!	!	!	!	!LO:SIC:s=[2A	!	!	!	!	!	!
2.AA/	con-	con-	2.E/	co(n)-	con-	2A/	.	con-	2.c/	co(n)-	con-	.
!	!	!	!	!	!	!LO:LB:g=original	!	!	!	!	!	!
=36-	=36-	=36-	=36-	=36-	=36-	=36-	=36-	=36-	=36-	=36-	=36-	=36-
*	*	*	*	*	*	*xywh-#261:5905,2148,4382,840	*	*	*	*	*	*
!	!	!	!	!	!	!LO:SIC:s=4A]	!	!	!	!	!	!
.	.	.	.	.	.	4A/	con-	.	.	.	.	0ryy
4AA/	-ſub-	-ſub-	4E/	-ſub-	-ſub-	4A/	-ſub-	-ſub-	4c/	-ſub-	-ſub-	.
4AA/	-ſta(n)-	-ſtan-	4E/	-ſta(n)-	-ſtan-	4A/	-ſta(n)-	-ſtan-	4c/	-ſta(n)-	-ſtan-	.
4AA/	-ci-	-ti-	4E/	-ci-	-ti-	4A/	-c(i-	-ti-	4c/	-ci-	-ti-	.
2D\	-a-	-a-	2F/	-a-	-a-	2A/	-a)-	-a-	2d\	-a-	-a-	.
2AA/	-le(m)	-lem	2E/	.	-lem	2A/	-l(e)m	-lem	2c\	-le(m)	-lem	.
=37-	=37-	=37-	=37-	=37-	=37-	=37-	=37-	=37-	=37-	=37-	=37-	=37-
*	*	*	*lig	*	*	*	*	*	*	*	*	*
1D\	pa-	Pa-	1F/	-lem	Pa-	1A/	p(at)-	Pa-	2d\	p(at)-	Pa--	0ryy
*	*	*	*	*	*	*	*	*	*custos:e	*	*	*
.	.	.	.	.	.	.	.	.	2d\	-ri	-tri	.
!	!	!	!	!	!	!	!	!	!LO:LB:g=original	!	!	!
1AA/	-tri	-tri	1E/	.	.	1A/	-ri	-tri	2r	.	.	.
.	.	.	.	.	.	.	.	.	1e\	per	per	.
*	*	*	*Xlig	*	*	*	*	*	*	*	*	*
=38-	=38-	=38-	=38-	=38-	=38-	=38-	=38-	=38-	=38-	=38-	=38-	=38-
1r	.	.	1F/	pa-	.	2r	.	.	.	.	.	0ryy
.	.	.	.	.	.	1A/	p(er)	per	2d\	que(m)	quem	.
2r	.	.	1E/	-tri	-tri	.	.	.	1e\	om-	om-	.
1E\	per	per	.	.	.	2G/	que(m)	quem	.	.	.	.
=39-	=39-	=39-	=39-	=39-	=39-	=39-	=39-	=39-	=39-	=39-	=39-	=39-
*	*	*	*	*	*	*	*	*	*xywh-#69:5916,1329,4005,691	*	*	*
.	.	.	2r	.	.	1A/	o(m-	om-	2A/	-ni-	-ni-	0ryy
2D\	quem	quem	1A\	per	per	.	.	.	2d\	-a	-a	.
1E\	o(m-	om-	.	.	.	4E/	-n)i-	-ni-	2c/	fac-	fa-	.
.	.	.	.	.	.	4E/	-a	-a	.	.	.	.
*	*	*	*custos:A	*	*	*	*	*	*	*	*	*
.	.	.	2G/	que(m)	quem	1e\	fac-	fa-	2B/	-ta	-cta	.
!	!	!	!LO:LB:g=original	!	!	!	!	!	!	!	!	!
=40-	=40-	=40-	=40-	=40-	=40-	=40-	=40-	=40-	=40-	=40-	=40-	=40-
*	*	*	*xywh-#456:5989,2141,4443,791	*	*	*	*	*	*	*	*	*
2AA/	-n)i-	-ni-	1A\	om-	om-	.	.	.	0.A/	ſ(un)t.	ſunt.	0ryy
2AA/	-a	-a	.	.	.	2c\	-ta	.	.	.	.	.
2D/	fa-	fa-	2D/	-ni-	-ni-	1d\	ſ(un)t	.	.	.	.	.
2D/	-cta	-cta	2F/	-a	-a	.	.	.	.	.	.	.
=41-	=41-	=41-	=41-	=41-	=41-	=41-	=41-	=41-	=41-	=41-	=41-	=41-
1AA/	ſ(un)t.	ſunt.	1E/	f(ac)-	fa-	2c/	.	.	.	.	.	0ryy
.	.	.	.	.	.	2c/	.	.	.	.	.	.
1r	.	.	1E/	-ta	-cta	2B/	.	.	1r	.	.	.
.	.	.	.	.	.	2c/	.	-cta	.	.	.	.
=42-	=42-	=42-	=42-	=42-	=42-	=42-	=42-	=42-	=42-	=42-	=42-	=42-
*	*	*	*	*	*	*custos:f	*	*	*	*	*	*
2r	.	.	1D/	ſu(n)t	ſunt.	1d\	.	sunt.	2r	.	.	0ryy
*custos:A	*	*	*	*	*	*	*	*	*	*	*	*
2D\	Qui	Qui	.	.	.	.	.	.	2f\	Qvi	Qui	.
*xywh-#628:5714,2217,4357,729	*	*	*	*	*	*	*	*	*	*	*	*
!LO:LB:g=original	!	!	!	!	!	!	!	!	!	!	!	!
1A\	prop-	prop-	1r	.	.	1r	.	.	1f\	p(ro)p-	prop-	.
!	!	!	!	!	!	!LO:LB:g=original	!	!	!	!	!	!
=43-	=43-	=43-	=43-	=43-	=43-	=43-	=43-	=43-	=43-	=43-	=43-	=43-
*	*	*	*	*	*	*xywh-#261:5905,2858,4465,944	*	*	*	*	*	*
2G\	-t(e)r	-ter	0r	.	.	0r	.	.	2e\	-t(e)r	-ter	0ryy
2F\	nos	nos	.	.	.	.	.	.	2d\	nos	nos	.
2E\	ho-	ho-	.	.	.	.	.	.	2d\	ho-	ho-	.
2E\	-(mi-	-mi-	.	.	.	.	.	.	2c\	-(mi-	-mi-	.
=44-	=44-	=44-	=44-	=44-	=44-	=44-	=44-	=44-	=44-	=44-	=44-	=44-
1D\	-n)es	-nes	2r	.	.	2r	.	.	1d\	-n)es	-nes	0ryy
.	.	.	2A\	(et)	[Qui]	2f\	(et)	[Qui]	.	.	.	.
1r	.	.	2.c\	pro-	pro-	2.e\	pro-	pro-	1r	.	.	.
.	.	.	4c\	-pt(e)r	-pter	4e\	-pt(e)r	-pter	.	.	.	.
=45-	=45-	=45-	=45-	=45-	=45-	=45-	=45-	=45-	=45-	=45-	=45-	=45-
0r	.	.	2B\	n(os-	nos-	2d\	n(os-	nos-	0r	.	.	0ryy
.	.	.	2A/	-t)ram	-tram	2c/	-t)ram	-tram	.	.	.	.
.	.	.	2A/	ſa-	ſa-	2B/	ſa-	ſa-	.	.	.	.
.	.	.	2G/	-lu-	-lu-	2B/	-lu-	-lu-	.	.	.	.
=46-	=46-	=46-	=46-	=46-	=46-	=46-	=46-	=46-	=46-	=46-	=46-	=46-
2r	.	.	2A/	-te(m)	-tem	2A/	-te(m)	-tem	2r	.	.	0ryy
2AA/	de-	de-	2E/	de-	de-	2A/	de-	de-	2c/	de-	de-	.
*	*	*	*	*	*	*	*	*	*custos:c	*	*	*
1D\	-ſcen-	-ſcen-	1F/	-ſce(n)-	-ſcen-	1A/	-ſce(n)-	-ſcen-	1d\	-ſce(n)-	-ſcen-	.
!	!	!	!	!	!	!	!	!	!LO:LB:g=original	!	!	!
=47-	=47-	=47-	=47-	=47-	=47-	=47-	=47-	=47-	=47-	=47-	=47-	=47-
2AA/	-dit	-dit	2E/	-dit	-dit	2A/	-d(i)t	-dit	2c/	-dit	-dit	0ryy
*	*	*	*custos:G	*	*	*	*	*	*	*	*	*
2AA/	de	de	2E/	de	de	2A/	de	de	2c/	d(e)	de	.
*	*	*	*xywh-#456:5974,2860,4392,784	*	*	*	*	*	*	*	*	*
!	!	!	!LO:LB:g=original	!	!	!	!	!	!	!	!	!
1GG/	cae-	cae-	1G/	cae-	cae-	1B/	cae-	cae-	1d\	cae-	cae-	.
=48-	=48-	=48-	=48-	=48-	=48-	=48-	=48-	=48-	=48-	=48-	=48-	=48-
*	*	*	*	*	*	*custos:A	*	*	*	*	*	*
!LO:SIC:s=0AA	!	!	!LO:SIC:s=0E	!	!	!LO:SIC:s=0A	!	!	!LO:SIC:s=0c	!	!	!
0AAl/	-lis	-lis.	0E/	-lis	-lis.	0Al/	-lis	-lis.	0c\l	-lis	-lis.	0ryy
!	!	!	!	!	!	!LO:PB:g=original	!	!	!	!	!	!
=49||	=49||	=49||	=49||	=49||	=49||	=49||	=49||	=49||	=49||	=49||	=49||	=49||
*	*	*	*	*	*	*xywh-#262:1338,619,4294,789	*	*	*	*	*	*
0D\	ET	Et	0F/	Et	Et	0A/	Et	Et	0d\	ET	Et	0ryy
=50-	=50-	=50-	=50-	=50-	=50-	=50-	=50-	=50-	=50-	=50-	=50-	=50-
1D\	in-	in-	1F/	in-	in-	1A/	in-	in-	1d\	in-	in-	0ryy
*custos:D	*	*	*	*	*	*	*	*	*	*	*	*
1C/	-car-	-car-	1G/	-car-	-car-	1c\	-car-	-car-	1e\	-car-	-car-	.
!LO:LB:g=original	!	!	!	!	!	!	!	!	!	!	!	!
=51-	=51-	=51-	=51-	=51-	=51-	=51-	=51-	=51-	=51-	=51-	=51-	=51-
*xywh-#628:5708,2921,4402,793	*	*	*	*	*	*	*	*	*xywh-#69:5936,1864,4093,711	*	*	*
1.D\	-na-	-na-	1.F/	-na-	-na-	1.A/	-na-	-na-	1.d\	-na-	-na-	0ryy
2GG/	-tus	-tus	2G/	-tus	-tus	2B/	-tus	-tus	2d\	-tus	-tus	.
=52-	=52-	=52-	=52-	=52-	=52-	=52-	=52-	=52-	=52-	=52-	=52-	=52-
1GG/	eſt	eſt	1G/	eſt	eſt	1B/	e(st)	est	1d\	e(st)	est	0ryy
0C/	de	de	0G/	de	de	0c\	de	de	0e\	de	de	.
=53-	=53-	=53-	=53-	=53-	=53-	=53-	=53-	=53-	=53-	=53-	=53-	=53-
.	.	.	.	.	.	.	.	.	.	.	.	0ryy
1E\	ſpi-	Spi-	1G/	ſp(i-	Spi-	1B/	sp(i-	Spi-	1e\	sp(i-	Spi-	.
=54-	=54-	=54-	=54-	=54-	=54-	=54-	=54-	=54-	=54-	=54-	=54-	=54-
1D\	-ri-	-ri-	1F/	-ri-	-ri-	1d\	-ri-	-ri-	1f\	-ri-	-ri-	0ryy
1F\	-tu	-tu	1A\	-t)u	-tu	1c\	-t)u	-tu	1f\	-t)u	-tu	.
=55-	=55-	=55-	=55-	=55-	=55-	=55-	=55-	=55-	=55-	=55-	=55-	=55-
1.E\	ſan-	San-	1.G/	sanc-	San-	1.c\	sanc-	San-	1.g\	ſan-	San-	0ryy
*	*	*	*custos:A	*	*	*	*	*	*custos:f	*	*	*
2D/	.	.	2A/	-to	.	2d\	.	.	2f\	.	.	.
!	!	!	!LO:PB:g=original	!	!	!	!	!	!LO:PB:g=original	!	!	!
=56-	=56-	=56-	=56-	=56-	=56-	=56-	=56-	=56-	=56-	=56-	=56-	=56-
*	*	*	*xywh-#457:1453,616,4143,837	*	*	*	*	*	*	*	*	*
1D\	-cto	-cto	2A/	.	-cto	1d\	-to	-cto	1f\	-cto	-cto	0ryy
.	.	.	2.D/	ex	ex	.	.	.	.	.	.	.
!	!	!	!	!	!	!LO:MO:mod=*null:null	!	!	!	!	!	!
*	*	*	*	*	*	*clefC4	*	*	*	*	*	*
0F\	Ex	ex	.	.	.	2r	.	.	0d\	ex	ex	.
.	.	.	4E/	.	.	.	.	.	.	.	.	.
.	.	.	4F/	.	.	1D/	ex	ex	.	.	.	.
.	.	.	4G/	.	.	.	.	.	.	.	.	.
=57-	=57-	=57-	=57-	=57-	=57-	=57-	=57-	=57-	=57-	=57-	=57-	=57-
.	.	.	1A\	Ma-	.	.	.	.	.	.	.	0ryy
*	*	*	*	*	*	*custos:G	*	*	*	*	*	*
.	.	.	.	.	.	2D/	Ma-	Ma-	.	.	.	.
*	*	*	*	*	*	*xywh-#262:1326,1374,4277,818	*	*	*	*	*	*
!	!	!	!	!	!	!LO:LB:g=original	!	!	!	!	!	!
1E\	Ma-	Ma-	2B\	-ri-	Ma-	1G/	-ri-	-ri-	1e\	MA-	Ma-	.
.	.	.	2c\	-a	-ri-	.	.	.	.	.	.	.
=58-	=58-	=58-	=58-	=58-	=58-	=58-	=58-	=58-	=58-	=58-	=58-	=58-
1D\	-ri-	-ri-	2d\	.	-a	4F/	-a	-a	1f\	-RI-	-ri-	0ryy
.	.	.	.	.	.	4G/	.	.	.	.	.	.
.	.	.	1A\	vir-	Vir-	4A/	.	.	.	.	.	.
.	.	.	.	.	.	4B\	.	.	.	.	.	.
1C/	-a	-a	.	.	.	1c\	.	.	1e\	-A	-a	.
.	.	.	2G/	.	.	.	.	.	.	.	.	.
=59-	=59-	=59-	=59-	=59-	=59-	=59-	=59-	=59-	=59-	=59-	=59-	=59-
1.D\	vir-	Vir-	2F/	.	.	1.A\	vir-	Vir-	1.d\	vir-	Vir-	0ryy
.	.	.	4D/	-gi-	-gi-	.	.	.	.	.	.	.
.	.	.	4E/	.	.	.	.	.	.	.	.	.
.	.	.	4F/	-ne	.	.	.	.	.	.	.	.
.	.	.	4G/	.	.	.	.	.	.	.	.	.
2AA/	-gi-	-gi-	1A\	.	.	2c\	-i-	-gi-	2e\	-gi-	-gi-	.
=60-	=60-	=60-	=60-	=60-	=60-	=60-	=60-	=60-	=60-	=60-	=60-	=60-
1AA/	-ne	-ne	.	.	.	1c\	-ne	-ne	1e\	-ne	-ne	0ryy
.	.	.	2A/	.	-ne	.	.	.	.	.	.	.
*	*	*	*custos:G	*	*	*	*	*	*	*	*	*
1D\	(et)	et	1F/	et	et	1A\	e(t)	et	1d\	(et)	et	.
!	!	!	!LO:LB:g=original	!	!	!	!	!	!	!	!	!
=61-	=61-	=61-	=61-	=61-	=61-	=61-	=61-	=61-	=61-	=61-	=61-	=61-
*custos:AA	*	*	*xywh-#457:1404,1384,4303,774	*	*	*	*	*	*	*	*	*
1C/	ho-	ho-	2G/	ho-	ho-	1.c\	ho-	ho-	1e\	ho-	ho-	0ryy
.	.	.	1A\	-mo	.	.	.	.	.	.	.	.
*xywh-#629:1031,632,4357,791	*	*	*	*	*	*	*	*	*	*	*	*
!LO:PB:g=original	!	!	!	!	!	!	!	!	!	!	!	!
1AA/	-mo	-mo	.	.	.	.	.	.	1c\	-mo	-mo	.
.	.	.	2E/	.	-mo	2A/	-mo	-mo	.	.	.	.
=62-	=62-	=62-	=62-	=62-	=62-	=62-	=62-	=62-	=62-	=62-	=62-	=62-
1.GG/	fac-	fa-	1.G/	fac-	fa-	1.B\	fac-	fa-	1.d\	fac-	fa-	0ryy
2GG/	-t(us)	-ctus	2G/	-t(us)	-ctus	2B\	-tus-	-ctus	2d/	-t(us)	-ctus	.
=63-	=63-	=63-	=63-	=63-	=63-	=63-	=63-	=63-	=63-	=63-	=63-	=63-
!LO:SIC:s=0D	!	!	!LO:SIC:s=0F	!	!	!LO:SIC:s=0A	!	!	!LO:SIC:s=0d	!	!	!
0Dl\	eſt.	eſt.	0Fl/	eſt.	eſt.	0Al\	-e(st)	-est.	0dl\	eſt	eſt.	0ryy
=64||	=64||	=64||	=64||	=64||	=64||	=64||	=64||	=64||	=64||	=64||	=64||	=64||
*	*	*	*	*	*	*	*	*	*xywh-#69:5936,2413,3903,759	*	*	*
1r	.	.	0r	.	.	1.A\	Cru-	Cru-	00r	.	.	0ryy
1.D\	CRu-	Cru-	.	.	.	.	.	.	.	.	.	.
*	*	*	*	*	*	*custos:d	*	*	*	*	*	*
.	.	.	.	.	.	2A/	-ci-	-ci-	.	.	.	.
!	!	!	!	!	!	!LO:LB:g=original	!	!	!	!	!	!
=65-	=65-	=65-	=65-	=65-	=65-	=65-	=65-	=65-	=65-	=65-	=65-	=65-
*	*	*	*	*	*	*xywh-#262:1343,2089,4306,841	*	*	*	*	*	*
.	.	.	1.A\	Cru-	Cru-	1d\	-fi-	-fi-	.	.	.	0ryy
2D/	-ci-	-ci-	.	.	.	.	.	.	.	.	.	.
1F\	-fi-	-fi-	.	.	.	2.c\	-xus	-xus	.	.	.	.
.	.	.	2A/	-ci-	-ci-	.	.	.	.	.	.	.
!	!	!	!	!	!	!LO:SIC:s=8BL	!	!	!	!	!	!
.	.	.	.	.	.	8B/	.	.	.	.	.	.
!	!	!	!	!	!	!LO:SIC:s=8AJ	!	!	!	!	!	!
.	.	.	.	.	.	8A/	.	.	.	.	.	.
=66-	=66-	=66-	=66-	=66-	=66-	=66-	=66-	=66-	=66-	=66-	=66-	=66-
1.E\	-xus	-xus	1c\	-fi-	-fi-	2G/	.	.	2r	.	.	0ryy
.	.	.	.	.	.	1A\	e-	e-	1e\	Cru-	Cru-	.
.	.	.	1B\	-xus	-xus	.	.	.	.	.	.	.
*	*	*	*	*	*	*	*	*	*custos:f	*	*	*
2E\	e-	e-	.	.	.	2G/	-ti-	-ti-	2e\	-ci-	-ci-	.
!	!	!	!	!	!	!	!	!	!LO:LB:g=original	!	!	!
=67-	=67-	=67-	=67-	=67-	=67-	=67-	=67-	=67-	=67-	=67-	=67-	=67-
1D\	-ti-	-ti-	2r	.	.	2.A\	-am	-am	1f\	-fi-	-fi-	0ryy
*	*	*	*custos:A	*	*	*	*	*	*	*	*	*
.	.	.	2A/	e-	e-	.	.	.	.	.	.	.
.	.	.	.	.	.	4B\	.	.	.	.	.	.
*	*	*	*xywh-#457:1404,2117,4303,802	*	*	*	*	*	*	*	*	*
!	!	!	!LO:LB:g=original	!	!	!	!	!	!	!	!	!
2C/	-am	-am	2A/	-ti-	-ti-	2c\	pro	.	2e\	-xus	-xus	.
2D/	pro	pro	2F/	-am	-am	2A/	.	pro	2d\	e-	e-	.
=68-	=68-	=68-	=68-	=68-	=68-	=68-	=68-	=68-	=68-	=68-	=68-	=68-
*custos:AA	*	*	*	*	*	*	*	*	*	*	*	*
1BB/	no-	no-	1G/	p(ro)	pro	1D/	no-	no-	2d\	-ti-	-ti-	0ryy
.	.	.	.	.	.	.	.	.	2B/	-am	-am	.
*xywh-#629:1044,1397,4344,839	*	*	*	*	*	*	*	*	*	*	*	*
!LO:LB:g=original	!	!	!	!	!	!	!	!	!	!	!	!
2AA/	-bis	-bis	1A\	no-	no-	2E/	-bis	-bis	1c\	p(ro)	pro	.
2A\	ſub	ſub	.	.	.	2F/	s(u)b	sub	.	.	.	.
=69-	=69-	=69-	=69-	=69-	=69-	=69-	=69-	=69-	=69-	=69-	=69-	=69-
2.A\	pon-	Pon-	1D/	-bis	-bis	2.F/	po(n)-	Pon-	1d\	no-	no-	0ryy
4G\	-ti-	-ti-	.	.	.	4E/	-ti-	-ti-	.	.	.	.
2F\	-o	-o	2r	.	.	2D/	-o	-o	2A/	-bis	-bis	.
2D/	Pi-	Pi-	2A/	ſ(u)b	sub	1d\	Pi-	Pi-	2f\	ſub	ſub	.
=70-	=70-	=70-	=70-	=70-	=70-	=70-	=70-	=70-	=70-	=70-	=70-	=70-
1E\	-la-	-la-	2A/	po(n)-	Pon-	.	.	.	2e\	Pon-	Pon-	0ryy
*	*	*	*	*	*	*custos:d	*	*	*	*	*	*
.	.	.	2G/	-ti-	-ti-	2c\	.	.	2e\	-ti-	-ti-	.
!	!	!	!	!	!	!LO:LB:g=original	!	!	!	!	!	!
!	!	!	!	!	!	!LO:MO:mod=*null:null	!	!	!	!	!	!
*	*	*	*	*	*	*clefC3	*	*	*	*	*	*
*	*	*	*	*	*	*xywh-#262:1340,2838,4237,870	*	*	*	*	*	*
1D\	-to	-to	2F/	-o	-o	1d\	-la-	-la-	2A/	-o	-o	.
.	.	.	2D/	Pi-	Pi-	.	.	.	1d\	Pi-	Pi-	.
=71-	=71-	=71-	=71-	=71-	=71-	=71-	=71-	=71-	=71-	=71-	=71-	=71-
1r	.	.	1E/	-la-	-la-	1G/	-to	-to	.	.	.	0ryy
.	.	.	.	.	.	.	.	.	2c\	-la-	-la-	.
2r	.	.	2D/	-to	-to	2r	.	.	2d\	-to	-to	.
1D\	paſ-	paſ-	1F/	paſ-	paſ-	1A/	paſ-	paſ-	1d\	paſ-	paſ-	.
=72-	=72-	=72-	=72-	=72-	=72-	=72-	=72-	=72-	=72-	=72-	=72-	=72-
.	.	.	.	.	.	.	.	.	.	.	.	0ryy
2D/	-sus	-sus	2F/	-ſ(us)	-ſus	2A/	-ſ(us)	-sus	2d\	-s(us)	-sus	.
2C/	et	et	2G/	et	et	2c/	et	et	2e\	(et)	et	.
*	*	*	*custos:E	*	*	*	*	*	*custos:c	*	*	*
2GG/	ſe-	ſe-	2G/	ſe-	ſe-	2B/	ſe-	ſe-	2d\	ſe-	ſe-	.
!	!	!	!LO:LB:g=original	!	!	!	!	!	!LO:LB:g=original	!	!	!
=73-	=73-	=73-	=73-	=73-	=73-	=73-	=73-	=73-	=73-	=73-	=73-	=73-
*	*	*	*xywh-#457:1397,2857,4275,961	*	*	*	*	*	*	*	*	*
1.C/	-pul-	-pul-	1.E/	-pul-	-pul-	1.G/	-pul-	-pul-	1.c\	-pul-	-pul-	0ryy
2GG/	-t(us)	-tus	2D/	-t(us)	-tus	2G/	-t(us)	-tus	2B/	-tus	-tus	.
=74-	=74-	=74-	=74-	=74-	=74-	=74-	=74-	=74-	=74-	=74-	=74-	=74-
*	*	*	*	*	*	*	*	*	*xywh-#69:5923,3044,4120,738	*	*	*
1GG/	eſt	eſt.	1D/	eſt	eſt	2G/	eſt	eſt.	00B/	eſt	eſt	0ryy
.	.	.	.	.	.	2d\	et	Et	.	.	.	.
2r	.	.	1r	.	.	2d\	re-	re-	.	.	.	.
2G\	(et)	Et	.	.	.	2d\	-ſur-	-ſur-	.	.	.	.
=75-	=75-	=75-	=75-	=75-	=75-	=75-	=75-	=75-	=75-	=75-	=75-	=75-
1.G\	re-	re-	00r	.	.	1e\	-re-	-re-	.	.	.	0ryy
.	.	.	.	.	.	2d\	-x(i)t	-xit	.	.	.	.
*custos:A	*	*	*	*	*	*	*	*	*	*	*	*
2G\	-ſu-	-ſu-	.	.	.	2d\	ter-	ter-	.	.	.	.
!LO:LB:g=original	!	!	!	!	!	!	!	!	!	!	!	!
=76-	=76-	=76-	=76-	=76-	=76-	=76-	=76-	=76-	=76-	=76-	=76-	=76-
*xywh-#629:1044,2135,4371,751	*	*	*	*	*	*	*	*	*	*	*	*
1A\	-re-	-re-	.	.	.	2c/	-ci-	-ti-	2r	.	.	0ryy
*	*	*	*	*	*	*custos:B	*	*	*	*	*	*
.	.	.	.	.	.	2A/	-a	-a	2c\	ter-	ter-	.
*	*	*	*	*	*	*xywh-#262:5901,619,4352,876	*	*	*	*	*	*
!	!	!	!	!	!	!LO:PB:g=original	!	!	!	!	!	!
2G\	-xit	-xit	.	.	.	1B/	di-	di-	2d\	-ci-	-ti-	.
2G\	ter-	ter-	.	.	.	.	.	.	2e\	-a	-a	.
=77-	=77-	=77-	=77-	=77-	=77-	=77-	=77-	=77-	=77-	=77-	=77-	=77-
2F\	-ci-	-ti-	2r	.	.	2A/	-ae	-e	1f\	di-	di-	0ryy
2D/	-a	-a	2F/	ſ(e)-	ſe-	1d\	ſ(e)-	se-	.	.	.	.
1E\	di-	di-	2G/	-c(un)-	-cun-	.	.	.	2e\	-ae	-e	.
.	.	.	2G/	-d(u)m	-dum	2c/	-c(un)-	-cun-	2e\	ſ(e)-	se-	.
=78-	=78-	=78-	=78-	=78-	=78-	=78-	=78-	=78-	=78-	=78-	=78-	=78-
1D\	-ae	-e.	2.A/	scri-	scri-	2d/	-d(u)m	-dum	2.f\	-c(un)-	-cun-	0ryy
.	.	.	.	.	.	1A/	Scri-	Scri-	.	.	.	.
.	.	.	4G/	.	.	.	.	.	4e\	-d(u)m	-dum	.
1r	.	.	2F/	-ptu-	.	.	.	.	2d\	ſcri-	ſcri-	.
.	.	.	2E/	-ras	-ptu-	2G/	-ptu-	-ptu-	2c/	-ptu-	-ptu-	.
=79-	=79-	=79-	=79-	=79-	=79-	=79-	=79-	=79-	=79-	=79-	=79-	=79-
2r	.	.	2D/	.	-ras.	1A/	-ras	-ras.	0d\	-ras	-ras.	0ryy
1D\	(et)	Et	2D/	e(t)	Et	.	.	.	.	.	.	.
.	.	.	1F/	a-	a-	2r	.	.	.	.	.	.
2D/	a-	a-	.	.	.	2A/	(et)	Et	.	.	.	.
=80-	=80-	=80-	=80-	=80-	=80-	=80-	=80-	=80-	=80-	=80-	=80-	=80-
2.G\	-ſcen-	-ſcen-	0G/	-ſce(n)-	-ſcen-	1B/	a-	a-	2r	.	.	0ryy
.	.	.	.	.	.	.	.	.	2d\	(et)	Et	.
4F\	-dit	.	.	.	.	.	.	.	.	.	.	.
1E\	in	.	.	.	.	1c\	-ſce(n)-	-ſcen-	1e\	a-	a-	.
=81-	=81-	=81-	=81-	=81-	=81-	=81-	=81-	=81-	=81-	=81-	=81-	=81-
1D\	.	-dit	1A\	-dit	-dit	1d\	-d(i)t	-dit	1f\	-ſcen-	-ſcen-	0ryy
*	*	*	*custos:A	*	*	*	*	*	*	*	*	*
1C/	cae-	in	1c\	in	in	1e\	in	in	2g\	.	.	.
*	*	*	*	*	*	*	*	*	*custos:f	*	*	*
.	.	.	.	.	.	.	.	.	2g\	-d(i)t	-dit	.
!	!	!	!LO:PB:g=original	!	!	!	!	!	!LO:LB:g=original	!	!	!
=82-	=82-	=82-	=82-	=82-	=82-	=82-	=82-	=82-	=82-	=82-	=82-	=82-
*	*	*	*xywh-#457:5952,662,4358,816	*	*	*	*	*	*	*	*	*
0D\	-lum	cae-	0A\	cae-	cae-	0d\	cae-	cae-	1f\	in	in	0ryy
.	.	.	.	.	.	.	.	.	1.f\	cae-	cae-	.
=83-	=83-	=83-	=83-	=83-	=83-	=83-	=83-	=83-	=83-	=83-	=83-	=83-
0AA/	.	-lum	1A\	-lu(m)	-lum	0c\	-lu(m)	-lum	.	.	.	0ryy
.	.	.	.	.	.	.	.	.	4e\	-lum	.	.
.	.	.	.	.	.	.	.	.	4d\	.	.	.
.	.	.	2r	.	.	.	.	.	1e\	.	.	.
.	.	.	2A\	ſe-	ſe-	.	.	.	.	.	.	.
=84-	=84-	=84-	=84-	=84-	=84-	=84-	=84-	=84-	=84-	=84-	=84-	=84-
2r	.	.	2d\	-det	-det	1r	.	.	0f\	.	-lum	0ryy
2D\	ſe-	ſe-	2d\	ad	ad	.	.	.	.	.	.	.
2F\	-det	-det	2c\	dex-	dex-	2r	.	.	.	.	.	.
*custos:E	*	*	*	*	*	*	*	*	*	*	*	*
2F\	ad	ad	2A\	-te-	-te-	2c\	ſe-	ſe-	.	.	.	.
!LO:LB:g=original	!	!	!	!	!	!	!	!	!	!	!	!
=85-	=85-	=85-	=85-	=85-	=85-	=85-	=85-	=85-	=85-	=85-	=85-	=85-
*xywh-#629:1058,2859,4384,784	*	*	*	*	*	*	*	*	*	*	*	*
2E\	dex-	dex-	1c\	-ra(m)	-ram	2e\	-det	-det	2r	.	.	0ryy
*	*	*	*	*	*	*custos:e	*	*	*	*	*	*
2C/	-te-	-te-	.	.	.	2e\	ad	ad	2e\	ſe-	ſe-	.
*	*	*	*	*	*	*	*	*	*xywh-#70:1684,640,4015,803	*	*	*
*	*	*	*	*	*	*xywh-#262:5918,1397,4300,835	*	*	*	*	*	*
!	!	!	!	!	!	!LO:LB:g=original	!	!	!	!	!	!
1E\	-ra(m)	-ram	2.B\	pa-	Pa-	1e\	dex-	dex-	2g\	-det	-det	.
.	.	.	.	.	.	.	.	.	2g\	ad	ad	.
.	.	.	4c\	.	.	.	.	.	.	.	.	.
=86-	=86-	=86-	=86-	=86-	=86-	=86-	=86-	=86-	=86-	=86-	=86-	=86-
2D/	.	Pa-	2.d\	-­-	-­-	2A/	-te-	-te-	2f\	dex-	dex-	0ryy
2.G\	pa-	.	.	.	.	1B/	-ra(m)	-ram	1d\	-te-	-te-	.
.	.	.	4c\	.	.	.	.	.	.	.	.	.
.	.	.	4B\	.	.	.	.	.	.	.	.	.
4F\	.	.	4A\	.	.	.	.	.	.	.	.	.
2D/	.	.	1d\	.	.	1A/	p(at)-	Pa-	2f\	-r(am)	-ram	.
=87-	=87-	=87-	=87-	=87-	=87-	=87-	=87-	=87-	=87-	=87-	=87-	=87-
1E\	-tris	.	.	.	.	.	.	.	1e\	p(at)-	Pa-	0ryy
.	.	.	2c\	.	.	2G/	-ris	.	.	.	.	.
2D/	(et)	-tris.	2d\	-tris	-tris.	2A/	.	-tris.	2A/	-ris	-tris.	.
*	*	*	*custos:A	*	*	*	*	*	*	*	*	*
2D/	i-	Et	2A/	e(t)	Et	2d\	e(t)	Et	2f\	(et)	Et	.
!	!	!	!LO:LB:g=original	!	!	!	!	!	!	!	!	!
=88-	=88-	=88-	=88-	=88-	=88-	=88-	=88-	=88-	=88-	=88-	=88-	=88-
*	*	*	*xywh-#457:5952,1416,4268,830	*	*	*	*	*	*	*	*	*
2.F\	-te-	i-	2.A/	i-	i-	2.c\	i-	i-	2.f\	i-	i-	0ryy
4F\	-ru(m)	-te-	4A/	-te-	-te-	4d\	-te-	-te-	4f\	-te-	-te-	.
2E\	.	-rum	2B\	-ru(m)	-rum	2e\	-ru(m)	-rum	2g\	-rum	-rum	.
*	*	*	*	*	*	*	*	*	*custos:f	*	*	*
2C/	ven-	ven-	2c\	ven-	ven-	2e\	ve(n)-	ven-	2g\	ven-	ven-	.
!	!	!	!	!	!	!	!	!	!LO:PB:g=original	!	!	!
=89-	=89-	=89-	=89-	=89-	=89-	=89-	=89-	=89-	=89-	=89-	=89-	=89-
2D\	-tu-	-tu-	2A/	 tu-	 tu-	2d\	-tu-	-tu-	2f\	-tu-	-tu-	0ryy
2E\	-rus	-rus	2G/	-r(us)	-rus	2B/	-r(us)	-rus	2e\	-rus	-rus	.
2AA/	eſt	eſt	2A/	e(st)	est	2c/	est	est	2e\	eſt	eſt	.
2A\	cu(m)	cum	2c\	cu(m)	cum	2c/	cu(m)	cum	2e\	cu(m)	cum	.
=90-	=90-	=90-	=90-	=90-	=90-	=90-	=90-	=90-	=90-	=90-	=90-	=90-
2.G\	glo-	glo-	2.B\	glo-	glo-	2.d\	glo-	glo-	2.g\	glo-	glo-	0ryy
*custos:F	*	*	*	*	*	*	*	*	*	*	*	*
4G\	.	-ri-	4B\	-ri-	-ri-	4d\	-ri-	-ri-	4g\	-ri-	-ri-	.
*xywh-#629:5777,680,4296,852	*	*	*	*	*	*	*	*	*	*	*	*
!LO:PB:g=original	!	!	!	!	!	!	!	!	!	!	!	!
2F\	ria	-a	2A\	-a	-a	2A/	-a	-a	2c/	-a	-a	.
2D/	iu-	ju-	2d\	iu-	ju-	2A/	iu-	ju-	2f\	iu-	ju-	.
=91-	=91-	=91-	=91-	=91-	=91-	=91-	=91-	=91-	=91-	=91-	=91-	=91-
2E\	-di-	-di-	2B\	-di-	-di-	2e\	-di-	-di-	2g\	-di-	-di-	0ryy
*	*	*	*	*	*	*custos:d	*	*	*	*	*	*
2C/	-ca-	-ca-	2c\	-ca-	-ca-	2e\	-ca-	-ca-	2g\	-ca-	-ca-	.
*	*	*	*	*	*	*xywh-#262:5910,2131,4289,893	*	*	*	*	*	*
!	!	!	!	!	!	!LO:LB:g=original	!	!	!	!	!	!
2D/	-re	-re	2A/	-re	-re	2d\	-re	-re	2f\	-re	-re	.
2D/	vi-	vi-	2A/	vi-	vi-	2d\	vi-	vi-	2f\	ui-	vi-	.
=92-	=92-	=92-	=92-	=92-	=92-	=92-	=92-	=92-	=92-	=92-	=92-	=92-
2F\	-uos	-vos	2A/	-uos	-vos	2c/	-uos	-vos	2f\	-uos	-vos	0ryy
*	*	*	*custos:A	*	*	*	*	*	*	*	*	*
2E\	(et)	et	2G/	e(t)	et	2c/	.	et	2g\	(et)	et	.
*	*	*	*xywh-#457:5938,2170,4247,830	*	*	*	*	*	*xywh-#70:1645,1294,4064,717	*	*	*
!	!	!	!LO:LB:g=original	!	!	!	!	!	!	!	!	!
2D/	mor-	mor-	2A\	mor-	mor-	2d\	et	mor-	2f\	mor-	mor-	.
2D/	-tu-	-tu-	2B\	-tu-	-tu-	2d\	mor-	-tu-	2f\	-tu-	-tu-	.
=93-	=93-	=93-	=93-	=93-	=93-	=93-	=93-	=93-	=93-	=93-	=93-	=93-
2C/	-os	-os	2c\	-os	-os	2G/	.	-os	2e\	-os	-os	0ryy
2C/	cu-	cu-	2c\	cu-	cu-	2G/	-tu-	cu-	2e\	cu-	cu-	.
2G\	-i(us)	-jus	2B\	-i(us)	-jus	2G/	-os	-jus	2d\	-ius	-jus	.
*	*	*	*	*	*	*	*	*	*custos:g	*	*	*
2F\	re-	re-	2A/	re-	re-	2c/	cu-	re-	2f\	re-	re-	.
!	!	!	!	!	!	!	!	!	!LO:LB:g=original	!	!	!
=94-	=94-	=94-	=94-	=94-	=94-	=94-	=94-	=94-	=94-	=94-	=94-	=94-
2E\	-gni	-gni	2G/	-gni	-gni	2c/	-ius	-gni	2g\	-gni	-gni	0ryy
2D\	no(n)	non	2A/	no(n)	non	2d\	.	non	2f\	no(n)	non	.
2E\	.	e-	1G/	e-	e-	2B/	re-	e-	2g\	e-	e-	.
1C/	e-	.	.	.	.	2.c/	-gni	-rit	2.e\	-rit	-rit	.
=95-	=95-	=95-	=95-	=95-	=95-	=95-	=95-	=95-	=95-	=95-	=95-	=95-
.	.	.	2G/	-rit	-rit	.	.	.	.	.	.	0ryy
.	.	.	.	.	.	4B/	no(n)	non	4d/	fi-	.	.
2D/	-rit	-rit	1F/	fi-	fi-	4A/	e-	e-	1d\	-nis	fi-	.
.	.	.	.	.	.	4G/	-rit	-rit	.	.	.	.
1AA/	fi-	fi-	.	.	.	1A/	fi-	fi-	.	.	.	.
.	.	.	4E/	.	.	.	.	.	4c/	.	.	.
.	.	.	4D/	-nis	.	.	.	.	4B/	.	.	.
=96-	=96-	=96-	=96-	=96-	=96-	=96-	=96-	=96-	=96-	=96-	=96-	=96-
*custos:AA	*	*	*custos:D	*	*	*custos:A	*	*	*	*	*	*
!LO:SIC:s=0AA	!	!	!LO:SIC:s=0E	!	!	!LO:SIC:s=0A	!	!	!LO:SIC:s=0c	!	!	!
0AAl/	-nis	-nis.	0El/	.	-nis.	0Al/	-nis	-nis.	0cl\	.	-nis.	0ryy
!LO:LB:g=original	!	!	!LO:LB:g=original	!	!	!LO:LB:g=original	!	!	!	!	!	!
=97||	=97||	=97||	=97||	=97||	=97||	=97||	=97||	=97||	=97||	=97||	=97||	=97||
*xywh-#629:5750,1411,4378,839	*	*	*xywh-#457:5959,2869,4275,788	*	*	*xywh-#262:5928,2886,4271,812	*	*	*	*	*	*
00r	.	.	0r	.	.	1A/	Et	Et	0r	.	.	0ryy
.	.	.	.	.	.	2d\	in	in	.	.	.	.
.	.	.	.	.	.	2.f\	ſP(i-	Spi-	.	.	.	.
=98-	=98-	=98-	=98-	=98-	=98-	=98-	=98-	=98-	=98-	=98-	=98-	=98-
.	.	.	1r	.	.	.	.	.	1A/	ET	Et	0ryy
.	.	.	.	.	.	4f\	-ri-	-ri-	.	.	.	.
.	.	.	.	.	.	2e\	-t)um	-tum	.	.	.	.
.	.	.	1D/	ET	Et	1d\	s(an)c-	San-	2d\	in	in	.
.	.	.	.	.	.	.	.	.	2.f\	Spi-	Spi-	.
=99-	=99-	=99-	=99-	=99-	=99-	=99-	=99-	=99-	=99-	=99-	=99-	=99-
1AA/	ET	Et	2A\	in	in	1c\	-t(u)m	-ctum	.	.	.	0ryy
.	.	.	.	.	.	.	.	.	4f\	-ri-	-ri-	.
.	.	.	2.c\	sp(i)-	Spi-	.	.	.	2e\	-tu(m)	-tum	.
2D\	in	in	.	.	.	2.f\	Do-	Do-	2d\	ſan-	San-	.
.	.	.	4B\	-ri-	-ri-	.	.	.	.	.	.	.
*	*	*	*	*	*	*	*	*	*custos:f	*	*	*
2.F\	spi-	Spi-	2A/	-(tu)m	-tum	.	.	.	2c\	-ctu(m)	-ctum	.
.	.	.	.	.	.	4f\	-mi-	-mi-	.	.	.	.
!	!	!	!	!	!	!	!	!	!LO:LB:g=original	!	!	!
=100-	=100-	=100-	=100-	=100-	=100-	=100-	=100-	=100-	=100-	=100-	=100-	=100-
.	.	.	1A\	ſ(an)-	San-	2c/	.	-num	2.f\	do-	Do-	0ryy
4E\	-ri-	-ri-	.	.	.	.	.	.	.	.	.	.
2D/	-tu(m)	-tum	.	.	.	2d\	-nu(m)	et	.	.	.	.
.	.	.	.	.	.	.	.	.	4f\	-mi-	-mi-	.
*	*	*	*	*	*	*	*	*	*xywh-#70:1690,1878,4045,705	*	*	*
1E\	ſan-	San-	2G/	-ct(um)	-ctum	2B/	e(t)	vi-	2e\	-nu(m)	-num	.
.	.	.	2.c\	Do-	Do-	2.e\	vi-	-vi-	1g\	(et)	et	.
=101-	=101-	=101-	=101-	=101-	=101-	=101-	=101-	=101-	=101-	=101-	=101-	=101-
2C/	-ctu(m)	-ctum	.	.	.	.	.	.	.	.	.	0ryy
.	.	.	4B\	-mi-	-mi-	4d/	.	.	.	.	.	.
2.F\	do-	Do-	2A/	-nu(m)	-num	4c/	-ui-	.	2f\	vi-	vi-	.
.	.	.	.	.	.	4B/	.	.	.	.	.	.
.	.	.	4D/	(et)	et	1A/	.	.	2.f\	-ui-	-vi-	.
4E\	-mi-	-mi-	4E/	.	.	.	.	.	.	.	.	.
2D/	-n(u)m	-num	4F/	.	.	.	.	.	.	.	.	.
.	.	.	4G/	.	.	.	.	.	4f\	-fi-	-fi-	.
=102-	=102-	=102-	=102-	=102-	=102-	=102-	=102-	=102-	=102-	=102-	=102-	=102-
*	*	*	*	*	*	*custos:B	*	*	*	*	*	*
1D\	(et	et	2A/	vi-	.	1d\	-fi-	.	1f\	-can-	-can-	0ryy
*	*	*	*custos:G	*	*	*	*	*	*	*	*	*
.	.	.	2F/	-ui-	vi-	.	.	.	.	.	.	.
*	*	*	*xywh-#458:1524,558,4109,857	*	*	*xywh-#263:1356,605,4125,818	*	*	*	*	*	*
!	!	!	!LO:PB:g=original	!	!	!LO:PB:g=original	!	!	!	!	!	!
2E\	vi-	vi-	2G/	.	-vi-	2B/	-can-	.	1e\	-tem	-tem	.
2C/	-ui-	-vi-	1A\	-fi-	-fi-	2c/	.	.	.	.	.	.
=103-	=103-	=103-	=103-	=103-	=103-	=103-	=103-	=103-	=103-	=103-	=103-	=103-
2D\	-fi-	-fi-	.	.	.	2B/	-tem	-fi-	2r	.	.	0ryy
2E\	-can-	-can-	2G/	-ca(n)-	-can-	2B/	.	-can-	2e\	Qui	qui	.
1AA/	-te(m)	-tem	2A/	-tem	-tem	1A/	.	-tem	2e\	ex	ex	.
.	.	.	2A/	q(ui)	qui	.	.	.	1c\	pat-	Pa-	.
=104-	=104-	=104-	=104-	=104-	=104-	=104-	=104-	=104-	=104-	=104-	=104-	=104-
1r	.	.	2A/	ex	ex	2r	.	.	.	.	.	0ryy
.	.	.	2F/	pa-	Pa-	2A/	Qui	qui	2d\	-re	-tre	.
2r	.	.	2G/	-tre	-tre	2B/	.	ex	2.e\	fi-	fi-	.
*custos:C	*	*	*	*	*	*	*	*	*	*	*	*
2AA/	Qui	qui	2.A/	fi-	fi-	1c\	ex	Pa-	.	.	.	.
.	.	.	.	.	.	.	.	.	4e\	-li-	-li-	.
!LO:LB:g=original	!	!	!	!	!	!	!	!	!	!	!	!
=105-	=105-	=105-	=105-	=105-	=105-	=105-	=105-	=105-	=105-	=105-	=105-	=105-
*xywh-#629:5750,2162,4432,812	*	*	*	*	*	*	*	*	*	*	*	*
2C/	ex	ex	.	.	.	.	.	.	2e\	-o-	-o-	0ryy
.	.	.	4A/	-li-	-li-	.	.	.	.	.	.	.
1E\	pa-	Pa-	1G/	-o-	-o-	2B/	.	.	1e\	-q(ue)	-que	.
.	.	.	.	.	.	2.A/	pa-	.	.	.	.	.
*	*	*	*	*	*	*	*	*	*custos:e	*	*	*
2D/	-tre	-tre	2F/	-q(ue)	-que	.	.	.	2f\	pro-	pro-	.
.	.	.	.	.	.	4A/	-tre	-tre	.	.	.	.
!	!	!	!	!	!	!	!	!	!LO:LB:g=original	!	!	!
=106-	=106-	=106-	=106-	=106-	=106-	=106-	=106-	=106-	=106-	=106-	=106-	=106-
2.C/	fi-	fi-	2G/	p(ro)-	pro-	2c/	fi-	fi-	1e\	-ce-	-ce-	0ryy
.	.	.	2G/	-ce-	-ce-	2.c/	-li-	-li-	.	.	.	.
4C/	-li-	-li-	.	.	.	.	.	.	.	.	.	.
2C/	-o-	-o-	1E/	-dit	-dit.	.	.	.	1e\	-dit	-dit.	.
.	.	.	.	.	.	4B/	-o-	-o-	.	.	.	.
2C/	-q(ue)	-que	.	.	.	1A/	-q(ue)	-que	.	.	.	.
=107-	=107-	=107-	=107-	=107-	=107-	=107-	=107-	=107-	=107-	=107-	=107-	=107-
2D/	p(ro)-	pro-	2r	.	.	.	.	.	1r	.	.	0ryy
2E\	-ce-	-ce-	2B\	Qui	Qui	2G/	pro-	pro-	.	.	.	.
*	*	*	*custos:A	*	*	*custos:D	*	*	*	*	*	*
1AA/	-dit	-dit.	1c\	cu(m)	cum	1A/	-ce-	-ce-	2r	.	.	.
.	.	.	.	.	.	.	.	.	2e\	Qui	Qui	.
!	!	!	!LO:LB:g=original	!	!	!LO:LB:g=original	!	!	!	!	!	!
=108-	=108-	=108-	=108-	=108-	=108-	=108-	=108-	=108-	=108-	=108-	=108-	=108-
*	*	*	*xywh-#458:1455,1332,4268,809	*	*	*xywh-#263:1356,1354,4180,859	*	*	*	*	*	*
1r	.	.	1A\	Pa-	Pa-	1D/	-dit	-dit.	1f\	cu(m)	cum	0ryy
2r	.	.	1B\	-tre	-tre	2r	.	.	1d\	p(at)-	Pa-	.
2GG/	(et)	[Qui]	.	.	.	2G/	et	Et	.	.	.	.
=109-	=109-	=109-	=109-	=109-	=109-	=109-	=109-	=109-	=109-	=109-	=109-	=109-
1C/	fi-	Fi-	1G/	et	et	2.E/	fi-	Fi-	1e\	-re	-tre	0ryy
.	.	.	.	.	.	4F/	-li-	.	.	.	.	.
1BB/	-li-	-li-	2.d\	fi-	Fi-	4G/	-o	.	1r	.	.	.
.	.	.	.	.	.	2A/	.	.	.	.	.	.
.	.	.	4d\	-li-	-li-	4G/	.	-li-	.	.	.	.
=110-	=110-	=110-	=110-	=110-	=110-	=110-	=110-	=110-	=110-	=110-	=110-	=110-
2AA/	-o	-o	2c\	-o	-o	2A/	.	-o	2r	.	.	0ryy
1AA/	ſi-	ſi-	1A\	ſi-	ſi-	1c\	ſi-	ſi-	1e\	ſi-	ſi-	.
2AA/	-mul	-mul	2A/	-mul	-mul	2c\	-mul	-mul	2e\	-mul	-mul	.
=111-	=111-	=111-	=111-	=111-	=111-	=111-	=111-	=111-	=111-	=111-	=111-	=111-
*	*	*	*	*	*	*	*	*	*xywh-#70:1722,2481,4012,705	*	*	*
2D/	a-	a-	2A/	a-	a-	2d\	a-	a-	2f\	a-	a-	0ryy
2D/	-do-	-do-	2A/	-do-	-do-	2d\	-do-	-do-	2f\	-do-	-do-	.
*custos:E	*	*	*	*	*	*	*	*	*	*	*	*
1D\	-ra-	-ra-	1A\	-ra-	-ra-	1d\	-ra-	-ra-	1f\	-ra-	-ra-	.
!LO:LB:g=original	!	!	!	!	!	!	!	!	!	!	!	!
=112-	=112-	=112-	=112-	=112-	=112-	=112-	=112-	=112-	=112-	=112-	=112-	=112-
*xywh-#629:5763,2940,4411,764	*	*	*	*	*	*	*	*	*	*	*	*
2E\	-tur	-tur	2G/	-t(ur)	-tur	2B/	-t(ur)	-tur	2e\	-tur	-tur	0ryy
2E\	(et)	et	2G/	et	et	2c\	et	et	2e\	(et)	et	.
2D/	con-	con-	2.A/	con-	con-	2d\	co(n)-	con-	2f\	co(n)-	con-	.
*	*	*	*	*	*	*custos:A	*	*	*	*	*	*
2AA/	-glo-	-glo-	.	.	.	2c\	-glo-	-glo-	2.e\	-glo-	-glo-	.
.	.	.	4A/	-glo-	-glo-	.	.	.	.	.	.	.
!	!	!	!	!	!	!LO:LB:g=original	!	!	!	!	!	!
=113-	=113-	=113-	=113-	=113-	=113-	=113-	=113-	=113-	=113-	=113-	=113-	=113-
*	*	*	*	*	*	*xywh-#263:1315,2138,4262,749	*	*	*	*	*	*
2D/	-ri-	-ri-	2F/	  ri-	  ri-	2A/	-ri-	-ri-	.	.	.	0ryy
.	.	.	.	.	.	.	.	.	4d\	-ri-	-ri-	.
2GG/	-fi-	-fi-	2G/	-fi-	-fi-	2B/	-fi-	-fi-	1d\	-fi-	-fi-	.
*	*	*	*custos:D	*	*	*	*	*	*	*	*	*
1AA/	-ca-	-ca-	1E/	-ca-	-ca-	1A/	-ca-	-ca-	.	.	.	.
*	*	*	*	*	*	*	*	*	*custos:d	*	*	*
.	.	.	.	.	.	.	.	.	2c\	-ca-	-ca-	.
!	!	!	!LO:LB:g=original	!	!	!	!	!	!LO:PB:g=original	!	!	!
=114-	=114-	=114-	=114-	=114-	=114-	=114-	=114-	=114-	=114-	=114-	=114-	=114-
*	*	*	*xywh-#458:1461,2045,4240,885	*	*	*	*	*	*	*	*	*
2D/	-tur	-tur	2D/	-tur	-tur	2A/	-t(ur)	-tur	2d\	-tur	-tur	0ryy
2.D/	(qui)	qui	2.F/	q(ui)	qui	2.A/	Qui	qui	2.d\	q(ui)	qui	.
4D/	lo-	lo-	4F/	lo-	lo-	4A/	lo-	lo-	4d\	lo-	lo-	.
2D/	-qu-	-cu-	2F/	-qu-	-cu-	2A/	-qu-	-cu-	2d\	-qu-	-cu-	.
=115-	=115-	=115-	=115-	=115-	=115-	=115-	=115-	=115-	=115-	=115-	=115-	=115-
2AA/	-t(us)	-tus	2E/	-t(us)	-tus	2A/	-t(us)	-tus	2c\	-tus	-tus	0ryy
2FF/	eſt	eſt	2A/	e(st)	est	2c/	eſt	eſt	2f\	e(st)	est	.
2C/	per	per	2G/	p(er)	per	2c/	per	per	2e\	per	per	.
2D/	pro-	Pro-	2F/	pro-	Pro-	2A/	pro-	Pro-	2d\	p(ro)-	Pro-	.
=116-	=116-	=116-	=116-	=116-	=116-	=116-	=116-	=116-	=116-	=116-	=116-	=116-
2AA/	-ph(e)-	-phe-	2E/	-phe-	-phe-	1A/	-ph(e)-	-phe-	2c\	-phe-	-phe-	0ryy
1D\	-t(a)s	-tas.	2D/	-tas	-tas.	.	.	.	2d\	-tas	-tas.	.
.	.	.	2r	.	.	2A/	-t(a)s	-tas.	2r	.	.	.
2.D/	(et)	Et	2.A/	e(t)	Et	2.d\	e(t)	Et	2.f\	(et)	Et	.
=117-	=117-	=117-	=117-	=117-	=117-	=117-	=117-	=117-	=117-	=117-	=117-	=117-
.	.	.	.	.	.	.	.	.	.	.	.	0ryy
4D/	u-	u-	4A/	u-	u-	4d\	u-	u-	4f\	u-	u-	.
*custos:GG	*	*	*	*	*	*	*	*	*	*	*	*
2D/	-nam	-nam	2A/	-nam	-nam	2d\	-na(m)	-nam	2f\	-na(m)	-nam	.
*xywh-#630:1020,721,4357,812	*	*	*	*	*	*custos:A	*	*	*	*	*	*
!LO:PB:g=original	!	!	!	!	!	!	!	!	!	!	!	!
1GG/	ſanc-	ſan-	1G/	ſ(an)c-	ſan-	1B/	san-	san-	1d\	ſ(an)c-	san-	.
!	!	!	!	!	!	!LO:LB:g=original	!	!	!	!	!	!
=118-	=118-	=118-	=118-	=118-	=118-	=118-	=118-	=118-	=118-	=118-	=118-	=118-
*	*	*	*	*	*	*xywh-#263:1329,2833,4180,804	*	*	*	*	*	*
4D/	-t(am)	-ctam	4F/	-ta(m)	-ctam	4A/	-cta(m)	-ctam	4d\	-tam	-ctam	0ryy
4D/	cha-	ca-	4F/	ca-	ca-	4B/	cha-	ca-	4d\	cha-	ca-	.
*	*	*	*	*	*	*	*	*	*xywh-#70:1741,3013,4070,794	*	*	*
4C/	-to-	-tho-	4G/	-tho-	-tho-	4c/	-tho-	-tho-	4e\	-to-	-tho-	.
*	*	*	*custos:A	*	*	*	*	*	*	*	*	*
4C/	-li-	-li-	4G/	-li-	-li-	4c/	-li-	-li-	4e\	-li-	-li-	.
*	*	*	*xywh-#458:1461,2799,4206,850	*	*	*	*	*	*	*	*	*
!	!	!	!LO:LB:g=original	!	!	!	!	!	!	!	!	!
2F\	-c(am)	-cam	2A/	-cam	-cam	2c/	-ca(m)	-cam	2f\	-ca(m)	-cam	.
*	*	*	*	*	*	*	*	*	*custos:f	*	*	*
2F\	(et)	et	2A/	et	et	2c/	e(t)	et	2f\	(et)	et	.
!	!	!	!	!	!	!	!	!	!LO:LB:g=original	!	!	!
=119-	=119-	=119-	=119-	=119-	=119-	=119-	=119-	=119-	=119-	=119-	=119-	=119-
4F\	a-	a-	4A/	a-	a-	4c/	a-	a-	4f\	a-	a-	0ryy
4F\	-po-	-po-	4A/	-po-	-po-	4c/	-po-	-po-	4f\	-po-	-po-	.
4F\	-ſto-	-ſto-	4A/	-ſto-	-ſto-	4c/	-sto-	-sto-	4f\	-ſto-	-ſto-	.
4F\	-li-	-li-	4A/	-li-	-li-	4c/	-li-	-li-	4f\	-li-	-li-	.
2C/	-ca(m)	-cam	2G/	-ca(m)	-cam	2c/	-ca(m)	-cam	2e\	-ca(m)	-cam	.
2D/	Ec-	Ec-	2F/	ec-	Ec-	2A/	Ec-	Ec-	2d\	Ec-	Ec-	.
=120-	=120-	=120-	=120-	=120-	=120-	=120-	=120-	=120-	=120-	=120-	=120-	=120-
2GG/	-l(e-	-le-	2G/	-cl(e-	-cle-	2B/	-(c)l(e-	-cle-	2d\	-l(e-	-cle-	0ryy
2AA/	-s)i-	-si-	2E/	-s)i-	-si-	2A/	-si-	-si-	2c/	-ſ)i-	-ſi-	.
0D\	-am	-am.	1D/	-am	-am.	2A/	-a)m	-am.	0d\	-am	-am.	.
.	.	.	.	.	.	2D/	con-	Con-	.	.	.	.
=121-	=121-	=121-	=121-	=121-	=121-	=121-	=121-	=121-	=121-	=121-	=121-	=121-
.	.	.	2r	.	.	2.F/	-fi-	-fi-	.	.	.	0ryy
.	.	.	2D/	con-	Con-	.	.	.	.	.	.	.
*	*	*	*	*	*	*custos:A	*	*	*	*	*	*
.	.	.	.	.	.	4G/	-te-	-te-	.	.	.	.
*	*	*	*	*	*	*xywh-#263:5855,655,4269,838	*	*	*	*	*	*
!	!	!	!	!	!	!LO:PB:g=original	!	!	!	!	!	!
!	!	!	!	!	!	!LO:TX:t=P:problem=odtąd na nowej karcie jest sześciolinia, zamiast pięciolinii. 	!	!	!	!	!	!
1r	.	.	2F/	-fi-	-fi-	2A/	-or	-or	2r	.	.	.
.	.	.	2G/	-te-	-te-	2B/	con-	con-	2d\	con-	Con-	.
=122-	=122-	=122-	=122-	=122-	=122-	=122-	=122-	=122-	=122-	=122-	=122-	=122-
2r	.	.	1A\	-or	-or	2c\	-fi-	-fi-	2.f\	-fi-	-fi-	0ryy
2D\	Con-	Con-	.	.	.	2d\	-te-	-te-	.	.	.	.
.	.	.	.	.	.	.	.	.	4g\	-te-	-te-	.
2.F\	-fi-	-fi-	2r	.	.	2c\	-or	-or	1a\	-or	-or	.
*	*	*	*custos:c	*	*	*	*	*	*	*	*	*
.	.	.	2d\	unu(m)	u-	2f\	u-	u-	.	.	.	.
4G\	-te-	-te-	.	.	.	.	.	.	.	.	.	.
!	!	!	!LO:PB:g=original	!	!	!	!	!	!	!	!	!
=123-	=123-	=123-	=123-	=123-	=123-	=123-	=123-	=123-	=123-	=123-	=123-	=123-
*	*	*	*xywh-#458:6043,712,4150,830	*	*	*	*	*	*	*	*	*
!	!	!	!LO:TX:t=P:problem=odtąd na nowej karcie jest sześciolinia, zamiast pięciolinii. 	!	!	!	!	!	!	!	!	!
2A\	-or	-or	2c\	.	-num	2e\	-nu(m)	-num	2r	.	.	0ryy
2r	.	.	2B\	bap-	bap-	2d\	Bap-	bap-	2g\	u-	u-	.
1D\	u-	u-	1A\	-tiſ-	-tiſ-	1d\	-tiſ-	-tiſ-	2g\	-nu(m)	-num	.
.	.	.	.	.	.	.	.	.	2f\	bap-	bap-	.
=124-	=124-	=124-	=124-	=124-	=124-	=124-	=124-	=124-	=124-	=124-	=124-	=124-
*custos:C	*	*	*	*	*	*	*	*	*	*	*	*
2E\	-nu(m)	-num	1G/	-ma	-ma	2B/	.	-ma	1e\	-tiſ-	-tiſ-	0ryy
*xywh-#630:1000,1486,4411,825	*	*	*	*	*	*	*	*	*	*	*	*
!LO:LB:g=original	!	!	!	!	!	!	!	!	!	!	!	!
2C/	bap-	bap-	.	.	.	2c/	-ma	in	.	.	.	.
2D/	-tiſ-	-tiſ-	2r	.	.	2A/	in	re-	2d/	-ma	-ma	.
2C/	-ma	-ma	1c\	in	in	2e\	re-	-mis-	1g\	in	in	.
=125-	=125-	=125-	=125-	=125-	=125-	=125-	=125-	=125-	=125-	=125-	=125-	=125-
2.G\	in	in	.	.	.	2.d\	-miſ-	-si-	.	.	.	0ryy
*	*	*	*	*	*	*	*	*	*custos:g	*	*	*
.	.	.	2B\	re-	re-	.	.	.	2g\	re-	re-	.
4G\	re-	re-	.	.	.	4d\	-s(i-	-o-	.	.	.	.
*	*	*	*	*	*	*	*	*	*xywh-#70:5987,607,3961,737	*	*	*
!	!	!	!	!	!	!	!	!	!LO:LB:g=original	!	!	!
2E\	-miſ-	-miſ-	2G/	-miſ-	-miſ-	2e\	-o-	-nem	2g\	-miſ-	-miſ-	.
2G\	-si-	-si-	2B/	-ſi-	-ſi-	2B/	-ne)m	pec-	2d\	-si-	-si-	.
=126-	=126-	=126-	=126-	=126-	=126-	=126-	=126-	=126-	=126-	=126-	=126-	=126-
2F\	-o-	-o-	1A\	-o-	-o-	2c/	pec-	-ca-	1.f\	-o-	-o-	0ryy
2D/	-(ne)m	-nem	.	.	.	1d\	-ca-	.	.	.	.	.
2D/	p(ec)-	pec-	1A\	-ne(m)	-nem	.	.	.	.	.	.	.
*	*	*	*	*	*	*custos:f	*	*	*	*	*	*
2C/	-c(a)-	-ca-	.	.	.	2e\	-to-	.	2e\	-nem	-nem	.
!	!	!	!	!	!	!LO:LB:g=original	!	!	!	!	!	!
=127-	=127-	=127-	=127-	=127-	=127-	=127-	=127-	=127-	=127-	=127-	=127-	=127-
*	*	*	*	*	*	*xywh-#263:5890,1439,4276,873	*	*	*	*	*	*
1D\	-to-	-to-	2r	.	.	4f\	-r(um)	.	2d\	pec-	pec-	0ryy
.	.	.	.	.	.	4e\	.	.	.	.	.	.
.	.	.	1A\	pec-	pec-	4d\	.	.	1f\	-ca-	-ca-	.
.	.	.	.	.	.	4c\	.	.	.	.	.	.
1D\	-rum	-rum.	.	.	.	2d\	.	.	.	.	.	.
.	.	.	2F/	-ca-	-ca-	1A/	.	.	4e\	.	.	.
.	.	.	.	.	.	.	.	.	4d\	-to-	.	.
=128-	=128-	=128-	=128-	=128-	=128-	=128-	=128-	=128-	=128-	=128-	=128-	=128-
1r	.	.	1E/	-to-	-to-	.	.	.	4c/	.	.	0ryy
.	.	.	.	.	.	.	.	.	2d/	.	.	.
.	.	.	.	.	.	2G/	.	-to-	.	.	.	.
.	.	.	.	.	.	.	.	.	4c/	.	-to-	.
2r	.	.	2D/	-r(um)	-rum.	2A/	.	-rum.	2d\	-rum	-rum.	.
*	*	*	*custos:F	*	*	*	*	*	*	*	*	*
2D/	(et)	Et	2D/	e(t)	Et	2A/	e(t)	Et	2d\	(et)	Et	.
!	!	!	!LO:LB:g=original	!	!	!	!	!	!	!	!	!
=129-	=129-	=129-	=129-	=129-	=129-	=129-	=129-	=129-	=129-	=129-	=129-	=129-
*	*	*	*xywh-#458:6057,1556,4206,816	*	*	*	*	*	*	*	*	*
2D/	ex-	ex-	2F/	ex-	ex-	2A/	ex-	ex-	2d\	ex-	ex-	0ryy
2C/	-pec-	-pe-	2G/	-pec-	-pe-	2c/	-pec-	-pe-	2e\	-pec-	-pe-	.
2F\	-to	-cto	2A/	-to	-cto	2A/	-to	-cto	2c/	-to	-cto	.
2.D/	re-	re-	2.F/	re-	re-	2.A/	re-	re-	2.d\	re-	re-	.
=130-	=130-	=130-	=130-	=130-	=130-	=130-	=130-	=130-	=130-	=130-	=130-	=130-
.	.	.	.	.	.	.	.	.	.	.	.	0ryy
4D/	-ſu-	-ſu-	4F/	-ſur-	-ſur-	4A/	-ſur-	-ſur-	4d\	-ſu-	-ſu-	.
4D/	-rec-	-re-	4F/	-rec-	-re-	4A/	-rec-	-re-	4d\	-rec-	-re-	.
*custos:C	*	*	*	*	*	*	*	*	*	*	*	*
4D/	-t(i)-	-cti-	4F/	-ti-	-cti-	4A/	-t(i-	-cti-	4d\	-ti-	-cti-	.
*xywh-#630:1007,2223,4418,812	*	*	*	*	*	*	*	*	*	*	*	*
!LO:LB:g=original	!	!	!	!	!	!	!	!	!	!	!	!
2C/	-o-	-o-	2G/	-o-	-o-	2c/	-o-	-o-	2e\	-o-	-o-	.
*	*	*	*	*	*	*	*	*	*custos:e	*	*	*
2D/	-nem	-nem	2F/	-(nem)	-nem	2A/	-n)em	-nem	2d\	-(ne)m	-nem	.
!	!	!	!	!	!	!	!	!	!LO:LB:g=original	!	!	!
=131-	=131-	=131-	=131-	=131-	=131-	=131-	=131-	=131-	=131-	=131-	=131-	=131-
2C/	mor-	mor-	2G/	mor-	mor-	2c\	mor-	mor-	2e\	mor-	mor-	0ryy
2F\	-tu-	-tu-	2A/	-tu-	-tu-	2c\	-tu-	-tu-	2f\	-tu-	-tu-	.
1C/	-o	-o-	1G/	-o-	-o-	1c\	-o-	-o-	1e\	-o-	-o-	.
=132-	=132-	=132-	=132-	=132-	=132-	=132-	=132-	=132-	=132-	=132-	=132-	=132-
*	*	*	*	*	*	*custos:c	*	*	*	*	*	*
!LO:SIC:s=0C	!	!	!LO:SIC:s=0G	!	!	!LO:SIC:s=0c	!	!	!LO:SIC:s=0e	!	!	!
0Cl/	rum	-rum.	0Gl/	-(rum)	-rum.	0cl\	-(rum)	-rum.	0el\	-rum	-rum.	0ryy
!	!	!	!	!	!	!LO:LB:g=original	!	!	!	!	!	!
=133||	=133||	=133||	=133||	=133||	=133||	=133||	=133||	=133||	=133||	=133||	=133||	=133||
*M3/1	*	*	*M3/1	*	*	*M3/1	*	*	*M3/1	*	*	*M3/1
*	*	*	*	*	*	*xywh-#263:5903,2278,3100,831	*	*	*xywh-#70:5987,1267,2288,673	*	*	*
1F\	(et)	Et	1A\	ET	Et	1c\	e(t)	Et	1f\	(Et)	Et	0.ryy
1F\	vi-	vi-	1A\	vi-	vi-	1c\	vi-	vi-	1f\	vi-	vi-	.
*	*	*	*custos:A	*	*	*	*	*	*	*	*	*
1C/	-tam	-tam	1G/	-ta(m)	-tam	1c\	-tam	-tam	1e\	-tam	-tam	.
!	!	!	!LO:LB:g=original	!	!	!	!	!	!	!	!	!
=134-	=134-	=134-	=134-	=134-	=134-	=134-	=134-	=134-	=134-	=134-	=134-	=134-
*	*	*	*xywh-#458:6057,2359,2601,747	*	*	*	*	*	*	*	*	*
1FF/	ven-	ven-	1A\	uen-	ven-	1c\	ven-	ven-	1f\	uen-	ven-	0.ryy
1FF/	-tu-	-tu-	1A\	-tu-	-tu-	1c\	-tu-	-tu-	1f\	-tu-	-tu-	.
1GG/	-ri	-ri	1D/	-ri	-ri	1B/	-ri	-ri	1d\	-ri	-ri	.
=135-	=135-	=135-	=135-	=135-	=135-	=135-	=135-	=135-	=135-	=135-	=135-	=135-
0FF/	ſe-	sae-	0A\	ſe-	sae-	0c\	ſe-	sae-	0f\	ſ(e)-	sae-	0.ryy
*custos:D	*	*	*	*	*	*	*	*	*	*	*	*
1C/	-cu-	-cu-	1G/	-cu-	-cu-	1c\	-c(u)-	-cu-	1e\	-c(u)-	-cu-	.
!LO:LB:g=original	!	!	!	!	!	!	!	!	!	!	!	!
=136-	=136-	=136-	=136-	=136-	=136-	=136-	=136-	=136-	=136-	=136-	=136-	=136-
*xywh-#630:1041,2995,1495,703	*	*	*	*	*	*	*	*	*	*	*	*
1D\	-li	-li.	1F/	-li	-li.	1A/	-li	-li.	0d\	-li	-li.	0.ryy
0AA/	A-	A-	0E/	A-	A-	0A/	A-	A-	.	.	.	.
.	.	.	.	.	.	.	.	.	1c\	A-	A-	.
=137-	=137-	=137-	=137-	=137-	=137-	=137-	=137-	=137-	=137-	=137-	=137-	=137-
!LO:MO:mod=!LO&colon;N&colon;vis=0	!	!	!LO:MO:mod=!LO&colon;N&colon;vis=0	!	!	!LO:MO:mod=!LO&colon;N&colon;vis=0	!	!	!LO:MO:mod=!LO&colon;N&colon;vis=0	!	!	!
!LO:SIC:s=0.D	!	!	!LO:SIC:s=0.D	!	!	!LO:SIC:s=0.A	!	!	!LO:SIC:s=0.d	!	!	!
0.Dl\	-MEN.	-men.	0.D/	-men	-men.	0.Al/	-men.	-men.	0.ld\	-MEN.	-men.	0.ryy
==	==	==	==	==	==	==	==	==	==	==	==	==
*-	*-	*-	*-	*-	*-	*-	*-	*-	*-	*-	*-	*-
!!!system-decoration: <s1>[(s2,s3,s4,s5)]
!!!RDF**kern: l = terminal long
!!!filter-modern: shed -e "s/TX(.*):t=P:/tx$1:t=P:/LG" | sic -sq | modori -m | autostem -r | tie -s | humtr -p | shed -e "s/-//B" | shed -e "s/^custos:/Xcustos:/I"
!!!ENC: Mateusz Solarz
!!!END: 2022-02-14
!!!ENC: Leszek Kubiak
!!!END: 2022-02-23
!!!ENC-modern: Andrzej Kubiczek
!!!END-modern: 2022-07-17
!!!ENC-iiif: Elżbieta Cabała
!!!END-iiif: 2022-08-31
!!!YEC: Copyright 2022 Narodowy Instytut Fryderyka Chopina (https://polishscores.org)
!!!YEM: License CC-BY-4.0 (https://creativecommons.org/licenses/by/4.0)
